; generated by Slic3r 1.2.9 on 2019-05-16 at 18:49:39

; external perimeters extrusion width = 0.40mm
; perimeters extrusion width = 0.56mm
; infill extrusion width = 0.56mm
; solid infill extrusion width = 0.56mm
; top infill extrusion width = 0.56mm

M107
M190 S60 ; set bed temperature
M104 S215 ; set temperature
G28 ; home all axes
G92 E0.0 ; reset extruder
M109 S215 ; wait for temperature to be reached
G21 ; set units to millimeters
G90 ; use absolute coordinates
M83 ; use relative distances for extrusion
G1 E-1.30000 F3600.00000
G1 Z0.300 F7800.000
G1 X64.657 Y60.844 F7800.000
G1 E1.30000 F3600.00000
M204 S500
G1 X65.924 Y59.577 E0.10631 F2160.000
G1 X66.163 Y59.373 E0.01861
G1 X67.613 Y58.320 E0.10631
G1 X67.881 Y58.155 E0.01868
G1 X69.480 Y57.341 E0.10644
G1 X69.770 Y57.221 E0.01862
G1 X71.473 Y56.667 E0.10621
G1 X71.778 Y56.594 E0.01861
G1 X73.549 Y56.313 E0.10637
G1 X74.760 Y56.253 E0.07195
G1 X105.240 Y56.253 E1.80813
G1 X106.134 Y56.288 E0.05310
G1 X106.448 Y56.313 E0.01869 F2160.000
G1 X108.219 Y56.593 E0.10636
G1 X108.527 Y56.667 E0.01879
G1 X110.230 Y57.221 E0.10621
G1 X110.520 Y57.341 E0.01862
G1 X112.119 Y58.155 E0.10644
G1 X112.387 Y58.319 E0.01862
G1 X113.837 Y59.373 E0.10637
G1 X114.076 Y59.577 E0.01861
G1 X115.343 Y60.844 E0.10631
G1 X115.547 Y61.083 E0.01861
G1 X116.601 Y62.533 E0.10637
G1 X116.765 Y62.801 E0.01862
G1 X117.579 Y64.400 E0.10644
G1 X117.699 Y64.690 E0.01862
G1 X118.253 Y66.393 E0.10622
G1 X118.326 Y66.698 E0.01861
G1 X118.607 Y68.471 E0.10653
G1 X118.667 Y69.680 E0.07178
G1 X118.667 Y110.320 E2.41084
G1 X118.607 Y111.529 E0.07178
G1 X118.326 Y113.302 E0.10653
G1 X118.253 Y113.607 E0.01861
G1 X117.699 Y115.310 E0.10621
G1 X117.578 Y115.602 E0.01877
G1 X116.765 Y117.199 E0.10630
G1 X116.601 Y117.467 E0.01864
G1 X115.547 Y118.917 E0.10634
G1 X115.342 Y119.157 E0.01869
G1 X114.077 Y120.422 E0.10616
G1 X113.837 Y120.627 E0.01870
G1 X112.387 Y121.681 E0.10637
G1 X112.119 Y121.845 E0.01862
G1 X110.523 Y122.658 E0.10627
G1 X110.230 Y122.779 E0.01879
G1 X108.527 Y123.333 E0.10621
G1 X108.222 Y123.406 E0.01861
G1 X106.448 Y123.687 E0.10655
G1 X105.240 Y123.747 E0.07177
G1 X74.760 Y123.747 E1.80813
G1 X73.552 Y123.687 E0.07177
G1 X71.779 Y123.406 E0.10646
G1 X71.472 Y123.333 E0.01871
G1 X69.770 Y122.779 E0.10622
G1 X69.480 Y122.659 E0.01862
G1 X67.876 Y121.842 E0.10675
G1 X67.614 Y121.681 E0.01828
G1 X66.163 Y120.627 E0.10639
G1 X65.924 Y120.423 E0.01861
G1 X64.657 Y119.156 E0.10631
G1 X64.453 Y118.917 E0.01861
G1 X63.399 Y117.467 E0.10636
G1 X63.235 Y117.199 E0.01862
G1 X62.421 Y115.600 E0.10644
G1 X62.300 Y115.309 E0.01868
G1 X61.747 Y113.607 E0.10616
G1 X61.674 Y113.302 E0.01861
G1 X61.393 Y111.528 E0.10654
G1 X61.368 Y111.212 E0.01881
G1 X61.333 Y110.320 E0.05298
G1 X61.333 Y69.680 E2.41084
G1 X61.393 Y68.469 E0.07195
G1 X61.674 Y66.698 E0.10637
G1 X61.747 Y66.393 E0.01861
G1 X62.301 Y64.690 E0.10622
G1 X62.421 Y64.400 E0.01862
G1 X63.235 Y62.801 E0.10644
G1 X63.399 Y62.534 E0.01862
G1 X64.453 Y61.083 E0.10637
G1 X64.618 Y60.890 E0.01506
G1 X65.019 Y61.153 F7800.000
G1 X66.233 Y59.939 E0.10188 F2160.000
G1 X66.472 Y59.735 E0.01861
G1 X67.861 Y58.725 E0.10188
G1 X68.130 Y58.561 E0.01868
G1 X69.662 Y57.780 E0.10201
G1 X69.952 Y57.660 E0.01862
G1 X71.584 Y57.130 E0.10179
G1 X71.889 Y57.056 E0.01861
G1 X73.586 Y56.787 E0.10194
G1 X74.760 Y56.729 E0.06973
G1 X105.240 Y56.729 E1.80813
G1 X106.097 Y56.762 E0.05089
G1 X106.411 Y56.787 E0.01869 F2160.000
G1 X108.108 Y57.056 E0.10193
G1 X108.416 Y57.130 E0.01878
G1 X110.048 Y57.660 E0.10179
G1 X110.338 Y57.780 E0.01862
G1 X111.870 Y58.561 E0.10201
G1 X112.138 Y58.725 E0.01862
G1 X113.528 Y59.735 E0.10194
G1 X113.767 Y59.939 E0.01861
G1 X114.981 Y61.153 E0.10189
G1 X115.185 Y61.392 E0.01861
G1 X116.195 Y62.782 E0.10194
G1 X116.359 Y63.050 E0.01862
G1 X117.140 Y64.582 E0.10201
G1 X117.260 Y64.872 E0.01862
G1 X117.790 Y66.504 E0.10179
G1 X117.864 Y66.809 E0.01861
G1 X118.133 Y68.509 E0.10210
G1 X118.191 Y69.680 E0.06957
G1 X118.191 Y110.320 E2.41084
G1 X118.133 Y111.491 E0.06957
G1 X117.864 Y113.191 E0.10210
G1 X117.790 Y113.496 E0.01861
G1 X117.260 Y115.128 E0.10179
G1 X117.139 Y115.420 E0.01876
G1 X116.359 Y116.950 E0.10187
G1 X116.195 Y117.218 E0.01864
G1 X115.185 Y118.608 E0.10191
G1 X114.981 Y118.848 E0.01869
G1 X113.768 Y120.060 E0.10175
G1 X113.528 Y120.265 E0.01870
G1 X112.138 Y121.275 E0.10194
G1 X111.870 Y121.439 E0.01862
G1 X110.341 Y122.219 E0.10185
G1 X110.048 Y122.340 E0.01878
G1 X108.416 Y122.870 E0.10178
G1 X108.111 Y122.944 E0.01861
G1 X106.411 Y123.213 E0.10212
G1 X105.240 Y123.271 E0.06956
G1 X74.760 Y123.271 E1.80813
G1 X73.589 Y123.213 E0.06956
G1 X71.890 Y122.944 E0.10203
G1 X71.584 Y122.870 E0.01871
G1 X69.952 Y122.340 E0.10179
G1 X69.662 Y122.220 E0.01862
G1 X68.130 Y121.440 E0.10196
G1 X67.862 Y121.275 E0.01864
G1 X66.472 Y120.265 E0.10196
G1 X66.233 Y120.061 E0.01861
G1 X65.019 Y118.847 E0.10189
G1 X64.815 Y118.608 E0.01861
G1 X63.805 Y117.218 E0.10193
G1 X63.641 Y116.950 E0.01862
G1 X62.860 Y115.418 E0.10201
G1 X62.740 Y115.127 E0.01867
G1 X62.210 Y113.496 E0.10174
G1 X62.136 Y113.191 E0.01861
G1 X61.867 Y111.491 E0.10210
G1 X61.842 Y111.175 E0.01880
G1 X61.809 Y110.320 E0.05078
G1 X61.809 Y69.680 E2.41084
G1 X61.867 Y68.506 E0.06973
G1 X62.136 Y66.809 E0.10194
G1 X62.210 Y66.504 E0.01861
G1 X62.740 Y64.872 E0.10180
G1 X62.860 Y64.582 E0.01862
G1 X63.641 Y63.050 E0.10201
G1 X63.805 Y62.782 E0.01862
G1 X64.815 Y61.392 E0.10194
G1 X64.980 Y61.199 E0.01506
G1 X65.380 Y61.462 F7800.000
G1 X66.542 Y60.300 E0.09746 F2160.000
G1 X66.781 Y60.097 E0.01861
G1 X68.110 Y59.131 E0.09746
G1 X68.378 Y58.966 E0.01868
G1 X69.844 Y58.220 E0.09758
G1 X70.134 Y58.099 E0.01862
G1 X71.695 Y57.592 E0.09737
G1 X72.000 Y57.519 E0.01861
G1 X73.623 Y57.261 E0.09752
G1 X74.760 Y57.204 E0.06751
G1 X105.240 Y57.204 E1.80813
G1 X106.060 Y57.237 E0.04868
G1 X106.374 Y57.261 E0.01868 F2160.000
G1 X107.997 Y57.518 E0.09751
G1 X108.305 Y57.592 E0.01878
G1 X109.866 Y58.099 E0.09737
G1 X110.156 Y58.220 E0.01862
G1 X111.622 Y58.966 E0.09758
G1 X111.889 Y59.130 E0.01862
G1 X113.219 Y60.097 E0.09752
G1 X113.458 Y60.300 E0.01861
G1 X114.620 Y61.462 E0.09746
G1 X114.823 Y61.701 E0.01861
G1 X115.790 Y63.031 E0.09752
G1 X115.954 Y63.298 E0.01862
G1 X116.700 Y64.764 E0.09758
G1 X116.821 Y65.054 E0.01862
G1 X117.328 Y66.615 E0.09737
G1 X117.401 Y66.920 E0.01861
G1 X117.659 Y68.546 E0.09766
G1 X117.716 Y69.680 E0.06735
G1 X117.716 Y110.320 E2.41084
G1 X117.659 Y111.454 E0.06735
G1 X117.401 Y113.080 E0.09766
G1 X117.328 Y113.385 E0.01861
G1 X116.821 Y114.946 E0.09737
G1 X116.700 Y115.238 E0.01876
G1 X115.954 Y116.702 E0.09745
G1 X115.790 Y116.970 E0.01864
G1 X114.824 Y118.299 E0.09749
G1 X114.619 Y118.539 E0.01868
G1 X113.459 Y119.699 E0.09733
G1 X113.219 Y119.903 E0.01869
G1 X111.889 Y120.870 E0.09751
G1 X111.622 Y121.034 E0.01862
G1 X110.159 Y121.779 E0.09743
G1 X109.866 Y121.901 E0.01878
G1 X108.305 Y122.408 E0.09736
G1 X108.000 Y122.481 E0.01861
G1 X106.374 Y122.739 E0.09768
G1 X105.240 Y122.796 E0.06734
G1 X74.760 Y122.796 E1.80813
G1 X73.626 Y122.739 E0.06734
G1 X72.001 Y122.481 E0.09759
G1 X71.695 Y122.408 E0.01870
G1 X70.134 Y121.901 E0.09737
G1 X69.844 Y121.780 E0.01862
G1 X68.379 Y121.034 E0.09753
G1 X68.111 Y120.870 E0.01864
G1 X66.781 Y119.903 E0.09753
G1 X66.542 Y119.700 E0.01861
G1 X65.380 Y118.538 E0.09746
G1 X65.177 Y118.299 E0.01861
G1 X64.210 Y116.969 E0.09751
G1 X64.046 Y116.702 E0.01862
G1 X63.300 Y115.236 E0.09758
G1 X63.179 Y114.945 E0.01867
G1 X62.672 Y113.385 E0.09732
G1 X62.599 Y113.080 E0.01861
G1 X62.341 Y111.454 E0.09767
G1 X62.316 Y111.138 E0.01879
G1 X62.284 Y110.320 E0.04857
G1 X62.284 Y69.680 E2.41084
G1 X62.341 Y68.543 E0.06751
G1 X62.599 Y66.920 E0.09751
G1 X62.672 Y66.615 E0.01861
G1 X63.179 Y65.054 E0.09738
G1 X63.300 Y64.764 E0.01862
G1 X64.046 Y63.298 E0.09758
G1 X64.210 Y63.031 E0.01862
G1 X65.177 Y61.701 E0.09752
G1 X65.341 Y61.508 E0.01506
G1 F6240
G1 X66.542 Y60.300 E-0.93321
G1 F6240
G1 X66.781 Y60.097 E-0.17198
G1 F6240
G1 X66.972 Y59.957 E-0.12980
G1 E-0.06500 F3600.00000
G1 X92.270 Y106.397 F7800.000
G1 E1.30000 F3600.00000
G1 X92.061 Y106.738 E0.02372 F1080.000
G1 X91.802 Y107.042 E0.02372
G1 X91.498 Y107.301 E0.02372
G1 X91.157 Y107.510 E0.02372
G1 X90.787 Y107.663 E0.02372
G1 X90.399 Y107.757 E0.02371
G1 X90.000 Y107.788 E0.02372
G1 X89.601 Y107.757 E0.02372
G1 X89.213 Y107.663 E0.02372
G1 X88.843 Y107.510 E0.02372
G1 X88.502 Y107.301 E0.02371
G1 X88.198 Y107.042 E0.02372
G1 X87.939 Y106.738 E0.02372
G1 X87.730 Y106.397 E0.02372
G1 X87.577 Y106.027 E0.02372
G1 X87.483 Y105.639 E0.02371
G1 X87.452 Y105.240 E0.02372
G1 X87.483 Y104.841 E0.02372
G1 X87.577 Y104.453 E0.02371
G1 X87.730 Y104.083 E0.02372
G1 X87.939 Y103.742 E0.02372
G1 X88.198 Y103.438 E0.02372
G1 X88.502 Y103.179 E0.02372
G1 X88.843 Y102.970 E0.02372
G1 X89.213 Y102.817 E0.02372
G1 X89.601 Y102.723 E0.02371
G1 X89.975 Y102.694 E0.02222 F1080.000
G1 X90.395 Y102.723 E0.02496
G1 X90.787 Y102.817 E0.02396
G1 X91.170 Y102.975 E0.02460
G1 X91.500 Y103.180 E0.02300
G1 X91.802 Y103.438 E0.02356
G1 X92.061 Y103.742 E0.02372
G1 X92.270 Y104.083 E0.02372
G1 X92.423 Y104.453 E0.02372
G1 X92.517 Y104.841 E0.02371
G1 X92.548 Y105.240 E0.02372
G1 X92.517 Y105.639 E0.02372
G1 X92.423 Y106.027 E0.02371
G1 X92.293 Y106.341 E0.02016
G1 X91.845 Y106.180 F7800.000
G1 X91.675 Y106.457 E0.01928 F1080.000
G1 X91.464 Y106.704 E0.01928
G1 X91.217 Y106.915 E0.01927
G1 X90.940 Y107.085 E0.01928
G1 X90.640 Y107.209 E0.01928
G1 X90.324 Y107.285 E0.01928
G1 X90.000 Y107.311 E0.01928
G1 X89.676 Y107.285 E0.01928
G1 X89.360 Y107.209 E0.01928
G1 X89.060 Y107.085 E0.01928
G1 X88.783 Y106.915 E0.01928
G1 X88.536 Y106.704 E0.01928
G1 X88.325 Y106.457 E0.01928
G1 X88.155 Y106.180 E0.01928
G1 X88.031 Y105.880 E0.01928
G1 X87.955 Y105.564 E0.01927
G1 X87.929 Y105.240 E0.01928
G1 X87.955 Y104.916 E0.01928
G1 X88.031 Y104.600 E0.01927
G1 X88.155 Y104.300 E0.01928
G1 X88.325 Y104.023 E0.01928
G1 X88.536 Y103.776 E0.01928
G1 X88.783 Y103.565 E0.01928
G1 X89.060 Y103.395 E0.01928
G1 X89.360 Y103.271 E0.01928
G1 X89.676 Y103.195 E0.01928
G1 X89.977 Y103.171 E0.01793 F1080.000
G1 X90.323 Y103.194 E0.02052
G1 X90.640 Y103.271 E0.01936
G1 X90.952 Y103.400 E0.02006
G1 X91.218 Y103.565 E0.01856
G1 X91.464 Y103.776 E0.01922
G1 X91.675 Y104.023 E0.01928
G1 X91.845 Y104.300 E0.01928
G1 X91.969 Y104.600 E0.01928
G1 X92.045 Y104.916 E0.01927
G1 X92.071 Y105.240 E0.01928
G1 X92.045 Y105.564 E0.01928
G1 X91.969 Y105.880 E0.01927
G1 X91.868 Y106.125 E0.01572
G1 X92.015 Y106.457 F7800.000
G1 F6240
G1 X91.675 Y106.457 E-0.21063
G1 F6240
G1 X91.464 Y106.704 E-0.17811
G1 F6240
G1 X91.217 Y106.915 E-0.17808
G1 F6240
G1 X90.940 Y107.085 E-0.17809
G1 F6240
G1 X90.640 Y107.209 E-0.17812
G1 F6240
G1 X90.324 Y107.285 E-0.17809
G1 F6240
G1 X90.080 Y107.304 E-0.13388
G1 E-0.06500 F3600.00000
G1 X82.373 Y105.435 F7800.000
G1 E1.30000 F3600.00000
G1 X82.357 Y105.639 E0.01213 F1080.000
G1 X82.263 Y106.027 E0.02371
G1 X82.110 Y106.397 E0.02372
G1 X81.901 Y106.738 E0.02372
G1 X81.642 Y107.042 E0.02372
G1 X81.338 Y107.301 E0.02372
G1 X80.997 Y107.510 E0.02371
G1 X80.627 Y107.663 E0.02372
G1 X80.239 Y107.757 E0.02372
G1 X79.840 Y107.788 E0.02372
G1 X79.441 Y107.757 E0.02372
G1 X79.077 Y107.669 E0.02221
G1 X78.687 Y107.512 E0.02497
G1 X78.342 Y107.301 E0.02396
G1 X78.038 Y107.042 E0.02372
G1 X77.776 Y106.734 E0.02396
G1 X77.560 Y106.373 E0.02496
G1 X77.417 Y106.027 E0.02222
G1 X77.323 Y105.639 E0.02371
G1 X77.292 Y105.240 E0.02372
G1 X77.323 Y104.841 E0.02372
G1 X77.417 Y104.453 E0.02371
G1 X77.570 Y104.083 E0.02373
G1 X77.779 Y103.742 E0.02371
G1 X78.038 Y103.438 E0.02372
G1 X78.342 Y103.179 E0.02372
G1 X78.683 Y102.970 E0.02371
G1 X79.053 Y102.817 E0.02373
G1 X79.441 Y102.723 E0.02371
G1 X79.815 Y102.694 E0.02222 F1080.000
G1 X80.235 Y102.723 E0.02496
G1 X80.627 Y102.817 E0.02396
G1 X80.997 Y102.970 E0.02372
G1 X81.338 Y103.179 E0.02372
G1 X81.642 Y103.438 E0.02372
G1 X81.901 Y103.742 E0.02372
G1 X82.110 Y104.083 E0.02372
G1 X82.263 Y104.453 E0.02372
G1 X82.357 Y104.841 E0.02371
G1 X82.388 Y105.240 E0.02372
G1 X82.377 Y105.375 E0.00803
G1 X81.898 Y105.397 F7800.000
G1 X81.885 Y105.564 E0.00991 F1080.000
G1 X81.809 Y105.880 E0.01927
G1 X81.685 Y106.180 E0.01928
G1 X81.515 Y106.457 E0.01928
G1 X81.304 Y106.704 E0.01928
G1 X81.057 Y106.915 E0.01927
G1 X80.780 Y107.085 E0.01928
G1 X80.480 Y107.209 E0.01928
G1 X80.164 Y107.285 E0.01928
G1 X79.840 Y107.311 E0.01928
G1 X79.516 Y107.285 E0.01928
G1 X79.222 Y107.215 E0.01793
G1 X78.901 Y107.086 E0.02052
G1 X78.623 Y106.915 E0.01936
G1 X78.376 Y106.704 E0.01928
G1 X78.164 Y106.456 E0.01936
G1 X77.986 Y106.159 E0.02052
G1 X77.871 Y105.880 E0.01794
G1 X77.795 Y105.564 E0.01927
G1 X77.769 Y105.240 E0.01928
G1 X77.795 Y104.916 E0.01928
G1 X77.871 Y104.600 E0.01927
G1 X77.995 Y104.300 E0.01928
G1 X78.165 Y104.023 E0.01927
G1 X78.376 Y103.776 E0.01928
G1 X78.623 Y103.565 E0.01928
G1 X78.900 Y103.395 E0.01928
G1 X79.200 Y103.271 E0.01928
G1 X79.516 Y103.195 E0.01927
G1 X79.817 Y103.171 E0.01793 F1080.000
G1 X80.163 Y103.194 E0.02052
G1 X80.480 Y103.271 E0.01936
G1 X80.780 Y103.395 E0.01928
G1 X81.057 Y103.565 E0.01928
G1 X81.304 Y103.776 E0.01928
G1 X81.515 Y104.023 E0.01928
G1 X81.685 Y104.300 E0.01928
G1 X81.809 Y104.600 E0.01928
G1 X81.885 Y104.916 E0.01927
G1 X81.903 Y105.338 E0.02503
G1 X82.039 Y105.487 F7800.000
G1 X79.840 Y77.308 F7800.000
G1 X79.441 Y77.277 E0.02372 F1080.000
G1 X79.053 Y77.183 E0.02371
G1 X78.683 Y77.030 E0.02373
G1 X78.342 Y76.821 E0.02371
G1 X78.038 Y76.562 E0.02372
G1 X77.776 Y76.254 E0.02396
G1 X77.560 Y75.893 E0.02496
G1 X77.417 Y75.547 E0.02222
G1 X77.323 Y75.159 E0.02371
G1 X77.292 Y74.760 E0.02372
G1 X77.323 Y74.361 E0.02372
G1 X77.417 Y73.973 E0.02371
G1 X77.570 Y73.603 E0.02373
G1 X77.779 Y73.262 E0.02371
G1 X78.038 Y72.958 E0.02372
G1 X78.342 Y72.699 E0.02372
G1 X78.683 Y72.490 E0.02371
G1 X79.053 Y72.337 E0.02373
G1 X79.441 Y72.243 E0.02371
G1 X79.815 Y72.214 E0.02222 F1080.000
G1 X80.235 Y72.243 E0.02496
G1 X80.627 Y72.337 E0.02396
G1 X80.997 Y72.490 E0.02372
G1 X81.338 Y72.699 E0.02371
G1 X81.642 Y72.958 E0.02372
G1 X81.901 Y73.262 E0.02372
G1 X82.110 Y73.603 E0.02372
G1 X82.263 Y73.973 E0.02372
G1 X82.357 Y74.361 E0.02371
G1 X82.388 Y74.760 E0.02372
G1 X82.357 Y75.159 E0.02372
G1 X82.263 Y75.547 E0.02371
G1 X82.110 Y75.917 E0.02372
G1 X81.901 Y76.258 E0.02372
G1 X81.642 Y76.562 E0.02372
G1 X81.338 Y76.821 E0.02372
G1 X80.997 Y77.030 E0.02372
G1 X80.627 Y77.183 E0.02372
G1 X80.239 Y77.277 E0.02371
G1 X79.900 Y77.303 E0.02016
G1 X79.840 Y76.831 F7800.000
G1 X79.516 Y76.805 E0.01928 F1080.000
G1 X79.200 Y76.729 E0.01927
G1 X78.900 Y76.605 E0.01928
G1 X78.623 Y76.435 E0.01927
G1 X78.376 Y76.224 E0.01928
G1 X78.164 Y75.976 E0.01936
G1 X77.986 Y75.679 E0.02052
G1 X77.871 Y75.400 E0.01794
G1 X77.795 Y75.084 E0.01927
G1 X77.769 Y74.760 E0.01928
G1 X77.795 Y74.436 E0.01928
G1 X77.871 Y74.120 E0.01927
G1 X77.995 Y73.820 E0.01928
G1 X78.165 Y73.543 E0.01927
G1 X78.376 Y73.296 E0.01928
G1 X78.623 Y73.085 E0.01928
G1 X78.900 Y72.915 E0.01927
G1 X79.200 Y72.791 E0.01928
G1 X79.516 Y72.715 E0.01927
G1 X79.817 Y72.691 E0.01793 F1080.000
G1 X80.163 Y72.714 E0.02052
G1 X80.480 Y72.791 E0.01936
G1 X80.780 Y72.915 E0.01928
G1 X81.057 Y73.085 E0.01928
G1 X81.304 Y73.296 E0.01928
G1 X81.515 Y73.543 E0.01928
G1 X81.685 Y73.820 E0.01928
G1 X81.809 Y74.120 E0.01928
G1 X81.885 Y74.436 E0.01927
G1 X81.911 Y74.760 E0.01928
G1 X81.885 Y75.084 E0.01928
G1 X81.809 Y75.400 E0.01927
G1 X81.685 Y75.700 E0.01928
G1 X81.515 Y75.977 E0.01928
G1 X81.304 Y76.224 E0.01928
G1 X81.057 Y76.435 E0.01928
G1 X80.780 Y76.605 E0.01928
G1 X80.480 Y76.729 E0.01928
G1 X80.164 Y76.805 E0.01928
G1 X79.900 Y76.826 E0.01572
G1 X79.670 Y77.108 F7800.000
G1 X87.483 Y75.159 F7800.000
G1 X87.452 Y74.756 E0.02396 F1080.000
G1 X87.489 Y74.337 E0.02496
G1 X87.577 Y73.973 E0.02221
G1 X87.730 Y73.603 E0.02372
G1 X87.939 Y73.262 E0.02372
G1 X88.198 Y72.958 E0.02372
G1 X88.502 Y72.699 E0.02372
G1 X88.843 Y72.490 E0.02371
G1 X89.213 Y72.337 E0.02372
G1 X89.601 Y72.243 E0.02372
