; generated by Slic3r 1.2.9 on 2019-03-10 at 10:27:46

; external perimeters extrusion width = 0.40mm
; perimeters extrusion width = 0.56mm
; infill extrusion width = 0.56mm
; solid infill extrusion width = 0.56mm
; top infill extrusion width = 0.56mm

M107
M190 S60 ; set bed temperature
M104 S215 ; set temperature
G28 ; home all axes
G92 E0.0 ; reset extruder
M109 S215 ; wait for temperature to be reached
G21 ; set units to millimeters
G90 ; use absolute coordinates
M83 ; use relative distances for extrusion
G1 E-1.30000 F3600.00000
G1 Z0.300 F7800.000
G1 X64.658 Y59.344 F7800.000
G1 E1.30000 F3600.00000
M204 S500
G1 X65.924 Y58.077 E0.10626 F2160.000
G1 X66.163 Y57.873 E0.01862
G1 X67.614 Y56.819 E0.10638
G1 X67.881 Y56.655 E0.01862
G1 X69.478 Y55.842 E0.10629
G1 X69.770 Y55.721 E0.01878
G1 X71.472 Y55.167 E0.10614
G1 X71.778 Y55.094 E0.01868
G1 X73.551 Y54.813 E0.10653
G1 X74.760 Y54.753 E0.07178
G1 X105.240 Y54.753 E1.80813
G1 X106.132 Y54.788 E0.05296
G1 X106.449 Y54.813 E0.01883 F2160.000
G1 X108.222 Y55.094 E0.10654
G1 X108.527 Y55.167 E0.01861
G1 X110.230 Y55.721 E0.10621
G1 X110.520 Y55.841 E0.01862
G1 X112.119 Y56.655 E0.10643
G1 X112.387 Y56.819 E0.01863
G1 X113.837 Y57.873 E0.10637
G1 X114.076 Y58.077 E0.01861
G1 X115.343 Y59.344 E0.10631
G1 X115.547 Y59.583 E0.01861
G1 X116.601 Y61.034 E0.10638
G1 X116.763 Y61.298 E0.01837
G1 X117.579 Y62.900 E0.10668
G1 X117.699 Y63.190 E0.01862
G1 X118.253 Y64.893 E0.10621
G1 X118.326 Y65.198 E0.01861
G1 X118.607 Y66.972 E0.10655
G1 X118.667 Y68.180 E0.07177
G1 X118.667 Y111.820 E2.58881
G1 X118.607 Y113.028 E0.07177
G1 X118.326 Y114.802 E0.10654
G1 X118.252 Y115.110 E0.01880
G1 X117.699 Y116.810 E0.10603
G1 X117.578 Y117.103 E0.01879
G1 X116.765 Y118.699 E0.10626
G1 X116.601 Y118.966 E0.01862
G1 X115.547 Y120.417 E0.10638
G1 X115.341 Y120.658 E0.01876
G1 X114.078 Y121.921 E0.10602
G1 X113.837 Y122.127 E0.01876
G1 X112.386 Y123.181 E0.10638
G1 X112.119 Y123.345 E0.01862
G1 X110.525 Y124.157 E0.10614
G1 X110.230 Y124.279 E0.01892
G1 X108.529 Y124.832 E0.10610
G1 X108.222 Y124.906 E0.01872
G1 X106.449 Y125.187 E0.10654
G1 X105.240 Y125.247 E0.07178
G1 X74.760 Y125.247 E1.80813
G1 X73.551 Y125.187 E0.07178
G1 X71.778 Y124.906 E0.10654
G1 X71.473 Y124.833 E0.01861
G1 X69.770 Y124.279 E0.10620
G1 X69.480 Y124.159 E0.01862
G1 X67.881 Y123.345 E0.10646
G1 X67.613 Y123.181 E0.01860
G1 X66.163 Y122.127 E0.10637
G1 X65.924 Y121.923 E0.01861
G1 X64.657 Y120.656 E0.10631
G1 X64.453 Y120.417 E0.01861
G1 X63.399 Y118.967 E0.10637
G1 X63.235 Y118.698 E0.01868
G1 X62.421 Y117.100 E0.10637
G1 X62.300 Y116.809 E0.01869
G1 X61.747 Y115.107 E0.10616
G1 X61.673 Y114.800 E0.01873
G1 X61.393 Y113.028 E0.10641
G1 X61.368 Y112.712 E0.01884
G1 X61.333 Y111.820 E0.05295
G1 X61.333 Y68.180 E2.58881
G1 X61.393 Y66.970 E0.07189
G1 X61.674 Y65.198 E0.10642
G1 X61.747 Y64.893 E0.01861
G1 X62.301 Y63.190 E0.10623
G1 X62.421 Y62.900 E0.01862
G1 X63.235 Y61.301 E0.10643
G1 X63.399 Y61.034 E0.01862
G1 X64.453 Y59.583 E0.10637
G1 X64.619 Y59.389 E0.01510
G1 X65.019 Y59.653 F7800.000
G1 X66.233 Y58.439 E0.10184 F2160.000
G1 X66.472 Y58.235 E0.01862
G1 X67.862 Y57.225 E0.10195
G1 X68.130 Y57.061 E0.01862
G1 X69.660 Y56.281 E0.10187
G1 X69.952 Y56.160 E0.01877
G1 X71.583 Y55.630 E0.10172
G1 X71.889 Y55.556 E0.01868
G1 X73.589 Y55.287 E0.10210
G1 X74.760 Y55.229 E0.06957
G1 X105.240 Y55.229 E1.80813
G1 X106.095 Y55.262 E0.05075
G1 X106.411 Y55.287 E0.01882 F2160.000
G1 X108.111 Y55.556 E0.10210
G1 X108.416 Y55.630 E0.01861
G1 X110.048 Y56.160 E0.10179
G1 X110.338 Y56.280 E0.01862
G1 X111.870 Y57.061 E0.10200
G1 X112.138 Y57.225 E0.01863
G1 X113.528 Y58.235 E0.10194
G1 X113.767 Y58.439 E0.01861
G1 X114.981 Y59.653 E0.10188
G1 X115.185 Y59.892 E0.01861
G1 X116.195 Y61.282 E0.10195
G1 X116.357 Y61.546 E0.01837
G1 X117.140 Y63.082 E0.10225
G1 X117.260 Y63.372 E0.01862
G1 X117.790 Y65.004 E0.10179
G1 X117.864 Y65.309 E0.01861
G1 X118.133 Y67.009 E0.10212
G1 X118.191 Y68.180 E0.06956
G1 X118.191 Y111.820 E2.58881
G1 X118.133 Y112.991 E0.06956
G1 X117.864 Y114.691 E0.10211
G1 X117.790 Y114.999 E0.01879
G1 X117.260 Y116.628 E0.10161
G1 X117.139 Y116.921 E0.01879
G1 X116.359 Y118.450 E0.10184
G1 X116.195 Y118.718 E0.01862
G1 X115.185 Y120.108 E0.10195
G1 X114.980 Y120.349 E0.01875
G1 X113.769 Y121.560 E0.10161
G1 X113.528 Y121.765 E0.01875
G1 X112.138 Y122.775 E0.10195
G1 X111.870 Y122.939 E0.01862
G1 X110.343 Y123.718 E0.10172
G1 X110.048 Y123.840 E0.01891
G1 X108.418 Y124.370 E0.10169
G1 X108.111 Y124.444 E0.01871
G1 X106.411 Y124.713 E0.10210
G1 X105.240 Y124.771 E0.06957
G1 X74.760 Y124.771 E1.80813
G1 X73.589 Y124.713 E0.06957
G1 X71.889 Y124.444 E0.10211
G1 X71.584 Y124.370 E0.01861
G1 X69.952 Y123.840 E0.10178
G1 X69.662 Y123.720 E0.01862
G1 X68.126 Y122.937 E0.10227
G1 X67.862 Y122.775 E0.01837
G1 X66.472 Y121.765 E0.10194
G1 X66.233 Y121.561 E0.01861
G1 X65.019 Y120.347 E0.10189
G1 X64.815 Y120.108 E0.01861
G1 X63.805 Y118.718 E0.10194
G1 X63.640 Y118.449 E0.01868
G1 X62.860 Y116.918 E0.10194
G1 X62.740 Y116.627 E0.01869
G1 X62.210 Y114.996 E0.10174
G1 X62.136 Y114.689 E0.01873
G1 X61.867 Y112.991 E0.10199
G1 X61.842 Y112.675 E0.01883
G1 X61.809 Y111.820 E0.05074
G1 X61.809 Y68.180 E2.58881
G1 X61.867 Y67.007 E0.06967
G1 X62.136 Y65.309 E0.10199
G1 X62.210 Y65.004 E0.01861
G1 X62.740 Y63.372 E0.10180
G1 X62.860 Y63.082 E0.01862
G1 X63.641 Y61.550 E0.10200
G1 X63.805 Y61.282 E0.01862
G1 X64.815 Y59.892 E0.10194
G1 X64.980 Y59.698 E0.01510
G1 X65.381 Y59.962 F7800.000
G1 X66.542 Y58.800 E0.09742 F2160.000
G1 X66.781 Y58.597 E0.01862
G1 X68.111 Y57.630 E0.09752
G1 X68.378 Y57.466 E0.01862
G1 X69.842 Y56.720 E0.09744
G1 X70.134 Y56.599 E0.01876
G1 X71.694 Y56.092 E0.09730
G1 X72.000 Y56.019 E0.01867
G1 X73.626 Y55.761 E0.09767
G1 X74.760 Y55.704 E0.06736
G1 X105.240 Y55.704 E1.80813
G1 X106.058 Y55.736 E0.04855
G1 X106.374 Y55.761 E0.01881 F2160.000
G1 X108.000 Y56.019 E0.09767
G1 X108.305 Y56.092 E0.01861
G1 X109.866 Y56.599 E0.09737
G1 X110.156 Y56.720 E0.01862
G1 X111.622 Y57.466 E0.09757
G1 X111.889 Y57.630 E0.01863
G1 X113.219 Y58.597 E0.09751
G1 X113.458 Y58.800 E0.01861
G1 X114.620 Y59.962 E0.09746
G1 X114.823 Y60.201 E0.01861
G1 X115.790 Y61.531 E0.09753
G1 X115.952 Y61.795 E0.01837
G1 X116.700 Y63.264 E0.09782
G1 X116.821 Y63.554 E0.01862
G1 X117.328 Y65.115 E0.09737
G1 X117.401 Y65.420 E0.01861
G1 X117.659 Y67.046 E0.09768
G1 X117.716 Y68.180 E0.06735
G1 X117.716 Y111.820 E2.58881
G1 X117.659 Y112.954 E0.06735
G1 X117.401 Y114.580 E0.09768
G1 X117.327 Y114.888 E0.01878
G1 X116.821 Y116.446 E0.09720
G1 X116.699 Y116.739 E0.01878
G1 X115.954 Y118.202 E0.09742
G1 X115.790 Y118.469 E0.01862
G1 X114.823 Y119.799 E0.09752
G1 X114.618 Y120.040 E0.01875
G1 X113.460 Y121.198 E0.09719
G1 X113.219 Y121.403 E0.01875
G1 X111.889 Y122.370 E0.09752
G1 X111.622 Y122.534 E0.01862
G1 X110.160 Y123.279 E0.09731
G1 X109.866 Y123.401 E0.01890
G1 X108.307 Y123.907 E0.09727
G1 X108.000 Y123.981 E0.01871
G1 X106.374 Y124.239 E0.09767
G1 X105.240 Y124.296 E0.06735
G1 X74.760 Y124.296 E1.80813
G1 X73.626 Y124.239 E0.06735
G1 X72.000 Y123.981 E0.09767
G1 X71.695 Y123.908 E0.01861
G1 X70.134 Y123.401 E0.09736
G1 X69.844 Y123.280 E0.01862
G1 X68.378 Y122.533 E0.09762
G1 X68.111 Y122.370 E0.01858
G1 X66.781 Y121.403 E0.09752
G1 X66.542 Y121.200 E0.01861
G1 X65.380 Y120.038 E0.09746
G1 X65.177 Y119.799 E0.01861
G1 X64.210 Y118.469 E0.09751
G1 X64.046 Y118.201 E0.01868
G1 X63.300 Y116.736 E0.09751
G1 X63.179 Y116.445 E0.01869
G1 X62.672 Y114.885 E0.09732
G1 X62.598 Y114.578 E0.01872
G1 X62.341 Y112.954 E0.09756
G1 X62.284 Y111.820 E0.06735
G1 X62.284 Y68.180 E2.58881
G1 X62.341 Y67.044 E0.06745
G1 X62.599 Y65.420 E0.09756
G1 X62.672 Y65.115 E0.01861
G1 X63.179 Y63.554 E0.09738
G1 X63.300 Y63.264 E0.01862
G1 X64.046 Y61.798 E0.09757
G1 X64.210 Y61.531 E0.01862
G1 X65.177 Y60.201 E0.09752
G1 X65.342 Y60.007 E0.01510
G1 F6240
G1 X66.542 Y58.800 E-0.93281
G1 F6240
G1 X66.781 Y58.597 E-0.17203
G1 F6240
G1 X66.973 Y58.457 E-0.13015
G1 E-0.06500 F3600.00000
G1 X82.263 Y106.027 F7800.000
G1 E1.30000 F3600.00000
G1 X82.110 Y106.397 E0.02372 F1080.000
G1 X81.901 Y106.738 E0.02372
G1 X81.642 Y107.042 E0.02372
G1 X81.338 Y107.301 E0.02372
G1 X80.997 Y107.510 E0.02371
G1 X80.627 Y107.663 E0.02372
G1 X80.239 Y107.757 E0.02372
G1 X79.840 Y107.788 E0.02372
G1 X79.441 Y107.757 E0.02372
G1 X79.053 Y107.663 E0.02371
G1 X78.683 Y107.510 E0.02373
G1 X78.342 Y107.301 E0.02371
G1 X78.038 Y107.042 E0.02372
G1 X77.779 Y106.738 E0.02372
G1 X77.570 Y106.397 E0.02371
G1 X77.417 Y106.027 E0.02373
G1 X77.323 Y105.639 E0.02371
G1 X77.292 Y105.240 E0.02372
G1 X77.323 Y104.841 E0.02372
G1 X77.417 Y104.453 E0.02371
G1 X77.570 Y104.083 E0.02373
G1 X77.779 Y103.742 E0.02371
G1 X78.038 Y103.438 E0.02372
G1 X78.342 Y103.179 E0.02372
G1 X78.683 Y102.970 E0.02371
G1 X79.053 Y102.817 E0.02373
G1 X79.441 Y102.723 E0.02371
G1 X79.815 Y102.694 E0.02222 F1080.000
G1 X80.235 Y102.723 E0.02496
G1 X80.627 Y102.817 E0.02396
G1 X80.997 Y102.970 E0.02372
G1 X81.338 Y103.179 E0.02372
G1 X81.642 Y103.438 E0.02372
G1 X81.901 Y103.742 E0.02372
G1 X82.110 Y104.083 E0.02372
G1 X82.263 Y104.453 E0.02372
G1 X82.357 Y104.841 E0.02371
G1 X82.388 Y105.240 E0.02372
G1 X82.357 Y105.639 E0.02372
G1 X82.277 Y105.969 E0.02015
G1 X81.809 Y105.880 F7800.000
G1 X81.685 Y106.180 E0.01928 F1080.000
G1 X81.515 Y106.457 E0.01928
G1 X81.304 Y106.704 E0.01928
G1 X81.057 Y106.915 E0.01928
G1 X80.780 Y107.085 E0.01928
G1 X80.480 Y107.209 E0.01928
G1 X80.164 Y107.285 E0.01928
G1 X79.840 Y107.311 E0.01928
G1 X79.516 Y107.285 E0.01928
G1 X79.200 Y107.209 E0.01927
G1 X78.900 Y107.085 E0.01928
G1 X78.623 Y106.915 E0.01927
G1 X78.376 Y106.704 E0.01928
G1 X78.165 Y106.457 E0.01928
G1 X77.995 Y106.180 E0.01927
G1 X77.871 Y105.880 E0.01928
G1 X77.795 Y105.564 E0.01927
G1 X77.769 Y105.240 E0.01928
G1 X77.795 Y104.916 E0.01928
G1 X77.871 Y104.600 E0.01927
G1 X77.995 Y104.300 E0.01928
G1 X78.165 Y104.023 E0.01927
G1 X78.376 Y103.776 E0.01928
G1 X78.623 Y103.565 E0.01928
G1 X78.900 Y103.395 E0.01927
G1 X79.200 Y103.271 E0.01928
G1 X79.516 Y103.195 E0.01927
G1 X79.817 Y103.171 E0.01793 F1080.000
G1 X80.163 Y103.194 E0.02052
G1 X80.480 Y103.271 E0.01936
G1 X80.780 Y103.395 E0.01928
G1 X81.057 Y103.565 E0.01928
G1 X81.304 Y103.776 E0.01928
G1 X81.515 Y104.023 E0.01928
G1 X81.685 Y104.300 E0.01928
G1 X81.809 Y104.600 E0.01928
G1 X81.885 Y104.916 E0.01927
G1 X81.911 Y105.240 E0.01928
G1 X81.885 Y105.564 E0.01928
G1 X81.823 Y105.822 E0.01571
G1 X82.021 Y106.127 F7800.000
G1 X87.467 Y105.435 F7800.000
G1 X87.452 Y105.240 E0.01158 F1080.000
G1 X87.483 Y104.841 E0.02372
G1 X87.577 Y104.453 E0.02371
G1 X87.730 Y104.083 E0.02372
G1 X87.939 Y103.742 E0.02372
G1 X88.198 Y103.438 E0.02372
G1 X88.502 Y103.179 E0.02372
G1 X88.843 Y102.970 E0.02372
G1 X89.213 Y102.817 E0.02372
G1 X89.601 Y102.723 E0.02372
G1 X89.975 Y102.694 E0.02222 F1080.000
G1 X90.395 Y102.723 E0.02496
G1 X90.787 Y102.817 E0.02396
G1 X91.170 Y102.975 E0.02460
G1 X91.500 Y103.180 E0.02300
G1 X91.802 Y103.438 E0.02356
G1 X92.061 Y103.742 E0.02372
G1 X92.270 Y104.083 E0.02372
G1 X92.423 Y104.453 E0.02372
G1 X92.517 Y104.841 E0.02371
G1 X92.548 Y105.240 E0.02372
G1 X92.517 Y105.639 E0.02372
G1 X92.423 Y106.027 E0.02371
G1 X92.270 Y106.397 E0.02372
G1 X92.061 Y106.738 E0.02372
G1 X91.802 Y107.042 E0.02372
G1 X91.498 Y107.301 E0.02372
G1 X91.157 Y107.510 E0.02372
G1 X90.787 Y107.663 E0.02372
G1 X90.399 Y107.757 E0.02371
G1 X90.000 Y107.788 E0.02372
G1 X89.601 Y107.757 E0.02372
G1 X89.213 Y107.663 E0.02371
G1 X88.843 Y107.510 E0.02372
G1 X88.502 Y107.301 E0.02372
G1 X88.198 Y107.042 E0.02372
G1 X87.939 Y106.738 E0.02372
G1 X87.730 Y106.397 E0.02372
G1 X87.577 Y106.027 E0.02372
G1 X87.483 Y105.639 E0.02371
G1 X87.472 Y105.494 E0.00858
G1 X87.942 Y105.397 F7800.000
G1 X87.929 Y105.240 E0.00936 F1080.000
G1 X87.955 Y104.916 E0.01928
G1 X88.031 Y104.600 E0.01927
G1 X88.155 Y104.300 E0.01928
G1 X88.325 Y104.023 E0.01928
G1 X88.536 Y103.776 E0.01928
G1 X88.783 Y103.565 E0.01928
G1 X89.060 Y103.395 E0.01928
G1 X89.360 Y103.271 E0.01928
G1 X89.676 Y103.195 E0.01928
G1 X89.977 Y103.171 E0.01793 F1080.000
G1 X90.323 Y103.194 E0.02052
G1 X90.640 Y103.271 E0.01936
G1 X90.952 Y103.400 E0.02006
G1 X91.218 Y103.565 E0.01856
G1 X91.464 Y103.776 E0.01922
G1 X91.675 Y104.023 E0.01928
G1 X91.845 Y104.300 E0.01928
G1 X91.969 Y104.600 E0.01928
G1 X92.045 Y104.916 E0.01927
G1 X92.071 Y105.240 E0.01928
G1 X92.045 Y105.564 E0.01928
G1 X91.969 Y105.880 E0.01927
G1 X91.845 Y106.180 E0.01928
G1 X91.675 Y106.457 E0.01928
G1 X91.464 Y106.704 E0.01928
G1 X91.217 Y106.915 E0.01927
G1 X90.940 Y107.085 E0.01928
G1 X90.640 Y107.209 E0.01928
G1 X90.324 Y107.285 E0.01928
G1 X90.000 Y107.311 E0.01928
G1 X89.676 Y107.285 E0.01928
G1 X89.360 Y107.209 E0.01928
G1 X89.060 Y107.085 E0.01928
G1 X88.783 Y106.915 E0.01928
G1 X88.536 Y106.704 E0.01927
G1 X88.325 Y106.457 E0.01928
G1 X88.155 Y106.180 E0.01928
G1 X88.031 Y105.880 E0.01928
G1 X87.955 Y105.564 E0.01927
G1 X87.946 Y105.457 E0.00635
G1 X87.799 Y105.329 F7800.000
G1 X90.000 Y77.308 F7800.000
G1 X89.601 Y77.277 E0.02372 F1080.000
G1 X89.213 Y77.183 E0.02372
G1 X88.843 Y77.030 E0.02372
G1 X88.502 Y76.821 E0.02372
G1 X88.198 Y76.562 E0.02372
G1 X87.939 Y76.258 E0.02372
G1 X87.730 Y75.917 E0.02372
G1 X87.577 Y75.547 E0.02372
G1 X87.483 Y75.159 E0.02371
G1 X87.452 Y74.756 E0.02396
G1 X87.489 Y74.337 E0.02496
G1 X87.577 Y73.973 E0.02221
G1 X87.730 Y73.603 E0.02372
G1 X87.939 Y73.262 E0.02372
G1 X88.198 Y72.958 E0.02372
G1 X88.502 Y72.699 E0.02372
G1 X88.843 Y72.490 E0.02371
G1 X89.213 Y72.337 E0.02372
G1 X89.601 Y72.243 E0.02371
G1 X89.975 Y72.214 E0.02222 F1080.000
G1 X90.395 Y72.243 E0.02496
G1 X90.787 Y72.337 E0.02396
G1 X91.157 Y72.490 E0.02372
G1 X91.498 Y72.699 E0.02372
G1 X91.802 Y72.958 E0.02372
G1 X92.061 Y73.262 E0.02372
G1 X92.270 Y73.603 E0.02372
G1 X92.423 Y73.973 E0.02372
G1 X92.517 Y74.361 E0.02371
G1 X92.548 Y74.760 E0.02372
G1 X92.517 Y75.159 E0.02372
G1 X92.423 Y75.547 E0.02371
G1 X92.270 Y75.917 E0.02372
G1 X92.061 Y76.258 E0.02372
G1 X91.802 Y76.562 E0.02372
G1 X91.498 Y76.821 E0.02372
G1 X91.157 Y77.030 E0.02372
G1 X90.787 Y77.183 E0.02372
G1 X90.399 Y77.277 E0.02371
G1 X90.060 Y77.303 E0.02016
G1 X90.000 Y76.831 F7800.000
G1 X89.676 Y76.805 E0.01928 F1080.000
G1 X89.360 Y76.729 E0.01928
G1 X89.060 Y76.605 E0.01928
G1 X88.783 Y76.435 E0.01928
G1 X88.536 Y76.224 E0.01928
G1 X88.325 Y75.977 E0.01928
G1 X88.155 Y75.700 E0.01928
G1 X88.031 Y75.400 E0.01928
G1 X87.955 Y75.084 E0.01927
G1 X87.929 Y74.759 E0.01937
G1 X87.960 Y74.414 E0.02052
G1 X88.031 Y74.120 E0.01793
G1 X88.155 Y73.820 E0.01928
G1 X88.325 Y73.543 E0.01928
G1 X88.536 Y73.296 E0.01928
G1 X88.783 Y73.085 E0.01927
G1 X89.060 Y72.915 E0.01928
G1 X89.360 Y72.791 E0.01928
G1 X89.676 Y72.715 E0.01928
G1 X89.977 Y72.691 E0.01793 F1080.000
G1 X90.323 Y72.714 E0.02052
G1 X90.640 Y72.791 E0.01936
G1 X90.940 Y72.915 E0.01928
G1 X91.217 Y73.085 E0.01928
G1 X91.464 Y73.296 E0.01927
G1 X91.675 Y73.543 E0.01928
G1 X91.845 Y73.820 E0.01928
G1 X91.969 Y74.120 E0.01928
G1 X92.045 Y74.436 E0.01927
G1 X92.071 Y74.760 E0.01928
G1 X92.045 Y75.084 E0.01928
G1 X91.969 Y75.400 E0.01927
G1 X91.845 Y75.700 E0.01928
G1 X91.675 Y75.977 E0.01928
G1 X91.464 Y76.224 E0.01928
G1 X91.217 Y76.435 E0.01928
G1 X90.940 Y76.605 E0.01928
G1 X90.640 Y76.729 E0.01928
G1 X90.324 Y76.805 E0.01928
G1 X90.060 Y76.826 E0.01572
G1 X89.830 Y77.108 F7800.000
G1 X82.357 Y75.159 F7800.000
G1 X82.263 Y75.547 E0.02371 F1080.000
G1 X82.110 Y75.917 E0.02372
G1 X81.901 Y76.258 E0.02372
G1 X81.642 Y76.562 E0.02372
G1 X81.338 Y76.821 E0.02372
G1 X80.997 Y77.030 E0.02372
G1 X80.627 Y77.183 E0.02372
G1 X80.239 Y77.277 E0.02371
G1 X79.840 Y77.308 E0.02372
G1 X79.441 Y77.277 E0.02372
G1 X79.053 Y77.183 E0.02371
G1 X78.683 Y77.030 E0.02373
G1 X78.342 Y76.821 E0.02371
G1 X78.038 Y76.562 E0.02372
G1 X77.776 Y76.254 E0.02396
G1 X77.560 Y75.893 E0.02496
G1 X77.417 Y75.547 E0.02222
G1 X77.323 Y75.159 E0.02371
G1 X77.292 Y74.760 E0.02372
G1 X77.323 Y74.361 E0.02372
G1 X77.417 Y73.973 E0.02371
G1 X77.570 Y73.603 E0.02373
