; generated by Slic3r 1.2.9 on 2019-03-11 at 19:07:37

; external perimeters extrusion width = 0.40mm
; perimeters extrusion width = 0.56mm
; infill extrusion width = 0.56mm
; solid infill extrusion width = 0.56mm
; top infill extrusion width = 0.56mm

M107
M190 S60 ; set bed temperature
M104 S215 ; set temperature
G28 ; home all axes
G92 E0.0 ; reset extruder
M109 S215 ; wait for temperature to be reached
G21 ; set units to millimeters
G90 ; use absolute coordinates
M83 ; use relative distances for extrusion
G1 E-1.30000 F3600.00000
G1 Z0.300 F7800.000
G1 X64.086 Y68.741 F7800.000
G1 E1.30000 F3600.00000
M204 S500
G1 X64.729 Y68.158 E0.05151 F2160.000
G1 X66.977 Y66.565 E0.16342
G1 X67.909 Y66.061 E0.06289
G1 X69.548 Y65.336 E0.10633
G1 X69.731 Y65.271 E0.01147
G1 X71.736 Y64.764 E0.12271
G1 X72.972 Y64.568 E0.07426
G1 X74.760 Y64.428 E0.10637
G1 X105.240 Y64.428 E1.80813
G1 X105.930 Y64.449 E0.04096
G1 X106.412 Y64.478 E0.02865 F2160.000
G1 X108.187 Y64.726 E0.10633
G1 X108.941 Y64.893 E0.04581
G1 X111.540 Y65.807 E0.16343
G1 X112.577 Y66.319 E0.06857
G1 X114.200 Y67.297 E0.11245
G1 X115.671 Y68.538 E0.11414
G1 X116.556 Y69.423 E0.07424
G1 X118.183 Y71.475 E0.15537
G1 X118.489 Y71.967 E0.03437
G1 X119.312 Y73.559 E0.10630
G1 X119.575 Y74.182 E0.04009
G1 X120.330 Y76.831 E0.16341
G1 X120.526 Y78.067 E0.07424
G1 X120.667 Y79.855 E0.10638
G1 X120.667 Y100.175 E1.20542
G1 X120.335 Y102.909 E0.16342
G1 X119.877 Y104.768 E0.11358
G1 X118.774 Y107.577 E0.17897
G1 X117.335 Y109.611 E0.14782
G1 X116.066 Y111.044 E0.11357
G1 X113.784 Y113.018 E0.17897
G1 X111.564 Y114.151 E0.14786
G1 X109.774 Y114.830 E0.11358
G1 X105.722 Y115.572 E0.24437
G1 X75.242 Y115.572 E1.80813
G1 X73.865 Y115.489 E0.08183
G1 X71.965 Y115.258 E0.11357
G1 X69.044 Y114.503 E0.17897
G1 X66.850 Y113.319 E0.14787
G1 X65.275 Y112.231 E0.11357
G1 X63.040 Y110.205 E0.17897
G1 X61.648 Y108.138 E0.14783
G1 X60.758 Y106.442 E0.11357
G1 X59.721 Y103.609 E0.17897
G1 X59.450 Y101.251 E0.14080
G1 X59.334 Y90.134 E0.65954
G1 X59.333 Y79.855 E0.60980
G1 X59.416 Y78.477 E0.08186
G1 X59.533 Y77.520 E0.05720
G1 X59.888 Y75.763 E0.10636
G1 X59.967 Y75.484 E0.01720
G1 X60.774 Y73.431 E0.13086
G1 X61.343 Y72.316 E0.07425
G1 X62.615 Y70.348 E0.13899
G1 X62.857 Y70.047 E0.02293
G1 X64.045 Y68.785 E0.10280
G1 X64.405 Y69.093 F7800.000
G1 X65.048 Y68.510 E0.05151 F2160.000
G1 X67.203 Y66.984 E0.15662
G1 X68.136 Y66.480 E0.06289
G1 X69.706 Y65.784 E0.10190
G1 X69.889 Y65.720 E0.01147
G1 X71.810 Y65.234 E0.11760
G1 X73.047 Y65.038 E0.07426
G1 X74.760 Y64.903 E0.10194
G1 X105.240 Y64.903 E1.80813
G1 X105.901 Y64.923 E0.03925
G1 X106.384 Y64.953 E0.02865 F2160.000
G1 X108.085 Y65.190 E0.10191
G1 X108.839 Y65.357 E0.04581
G1 X111.330 Y66.233 E0.15663
G1 X112.366 Y66.746 E0.06857
G1 X113.925 Y67.685 E0.10801
G1 X115.334 Y68.875 E0.10939
G1 X116.219 Y69.759 E0.07424
G1 X117.779 Y71.726 E0.14890
G1 X118.085 Y72.218 E0.03437
G1 X118.874 Y73.744 E0.10188
G1 X119.136 Y74.367 E0.04009
G1 X119.861 Y76.905 E0.15660
G1 X120.056 Y78.141 E0.07424
G1 X120.191 Y79.855 E0.10195
G1 X120.191 Y100.175 E1.20542
G1 X119.873 Y102.796 E0.15662
G1 X119.415 Y104.655 E0.11358
G1 X118.328 Y107.400 E0.17519
G1 X116.979 Y109.295 E0.13799
G1 X115.709 Y110.728 E0.11357
G1 X113.471 Y112.655 E0.17519
G1 X111.395 Y113.706 E0.13803
G1 X109.605 Y114.385 E0.11358
G1 X105.722 Y115.097 E0.23419
G1 X75.242 Y115.097 E1.80813
G1 X73.923 Y115.017 E0.07843
G1 X72.022 Y114.786 E0.11357
G1 X69.165 Y114.038 E0.17519
G1 X67.120 Y112.927 E0.13804
G1 X65.545 Y111.840 E0.11357
G1 X63.363 Y109.850 E0.17519
G1 X62.069 Y107.917 E0.13799
G1 X61.179 Y106.221 E0.11357
G1 X60.172 Y103.445 E0.17519
G1 X59.926 Y101.246 E0.13126
G1 X59.809 Y90.129 E0.65954
G1 X59.809 Y79.855 E0.60950
G1 X59.889 Y78.535 E0.07845
G1 X60.005 Y77.577 E0.05720
G1 X60.345 Y75.893 E0.10193
G1 X60.425 Y75.614 E0.01720
G1 X61.198 Y73.647 E0.12541
G1 X61.766 Y72.532 E0.07425
G1 X62.986 Y70.646 E0.13320
G1 X63.228 Y70.345 E0.02293
G1 X64.364 Y69.137 E0.09837
G1 X64.725 Y69.446 F7800.000
G1 X65.368 Y68.862 E0.05151 F2160.000
G1 X67.429 Y67.402 E0.14982
G1 X68.362 Y66.898 E0.06289
G1 X69.864 Y66.233 E0.09748
G1 X70.046 Y66.169 E0.01147
G1 X71.885 Y65.704 E0.11249
G1 X73.121 Y65.508 E0.07426
G1 X74.760 Y65.379 E0.09751
G1 X105.240 Y65.379 E1.80813
G1 X105.873 Y65.398 E0.03755
G1 X106.355 Y65.427 E0.02865 F2160.000
G1 X107.982 Y65.655 E0.09748
G1 X108.736 Y65.821 E0.04581
G1 X111.119 Y66.660 E0.14983
G1 X112.155 Y67.172 E0.06857
G1 X113.650 Y68.073 E0.10356
G1 X114.998 Y69.211 E0.10464
G1 X115.883 Y70.096 E0.07424
G1 X117.375 Y71.977 E0.14244
G1 X117.681 Y72.469 E0.03437
G1 X118.436 Y73.928 E0.09745
G1 X118.698 Y74.551 E0.04009
G1 X119.391 Y76.980 E0.14980
G1 X119.587 Y78.216 E0.07424
G1 X119.716 Y79.855 E0.09753
G1 X119.716 Y100.175 E1.20542
G1 X119.411 Y102.682 E0.14982
G1 X118.953 Y104.541 E0.11358
G1 X117.882 Y107.223 E0.17132
G1 X116.623 Y108.980 E0.12824
G1 X115.353 Y110.413 E0.11357
G1 X113.159 Y112.290 E0.17132
G1 X111.227 Y113.261 E0.12827
G1 X109.437 Y113.940 E0.11358
G1 X105.722 Y114.621 E0.22402
G1 X75.242 Y114.621 E1.80813
G1 X73.980 Y114.545 E0.07502
G1 X72.079 Y114.314 E0.11357
G1 X69.288 Y113.574 E0.17132
G1 X67.391 Y112.536 E0.12829
G1 X65.815 Y111.448 E0.11357
G1 X63.687 Y109.496 E0.17132
G1 X62.490 Y107.695 E0.12824
G1 X61.601 Y106.000 E0.11357
G1 X60.624 Y103.282 E0.17132
G1 X60.401 Y101.241 E0.12180
G1 X60.285 Y90.124 E0.65954
G1 X60.284 Y79.855 E0.60921
G1 X60.361 Y78.592 E0.07504
G1 X60.477 Y77.635 E0.05720
G1 X60.803 Y76.024 E0.09751
G1 X60.882 Y75.745 E0.01720
G1 X61.622 Y73.863 E0.11996
G1 X62.190 Y72.747 E0.07425
G1 X63.356 Y70.944 E0.12742
G1 X63.598 Y70.642 E0.02293
G1 X64.684 Y69.489 E0.09395
G1 F6240
G1 X65.368 Y68.862 E-0.50867
G1 F6240
G1 X66.449 Y68.096 E-0.72633
G1 E-0.06500 F3600.00000
G1 X102.590 Y87.365 F7800.000
G1 E1.30000 F3600.00000
G1 X77.410 Y87.365 E1.49373 F1458.000
G1 X77.410 Y82.505 E0.28830
G1 X102.590 Y82.505 E1.49373
G1 X102.590 Y87.305 E0.28475
G1 X102.590 Y87.765 F7800.000
G1 F6240
G1 X100.337 Y87.310 E-1.23500
G1 E-0.06500 F3600.00000
G1 X79.108 Y79.855 F7800.000
G1 E1.30000 F3600.00000
G1 X77.246 Y76.629 E0.22092 F1620.000
G1 X102.754 Y76.629 E1.51313
G1 X100.892 Y79.855 E0.22092
G1 X102.147 Y82.029 E0.14894
G1 X77.853 Y82.029 E1.44115
G1 X79.078 Y79.907 E0.14538
G1 F6240
G1 X77.979 Y77.940 E-1.23500
G1 E-0.06500 F3600.00000
G1 X103.066 Y83.620 F7800.000
G1 E1.30000 F3600.00000
G1 X107.414 Y83.620 E0.25796 F1080.000
G1 X108.283 Y82.116 E0.10306
G1 X108.494 Y82.173 E0.01299
G1 X108.494 Y87.697 E0.32770
G1 X108.283 Y87.753 E0.01299
G1 X107.414 Y86.249 E0.10306
G1 X103.066 Y86.249 E0.25796
G1 X103.066 Y83.680 E0.15235
G1 F6240
G1 X105.319 Y83.649 E-1.23500
G1 E-0.06500 F3600.00000
G1 X103.066 Y93.781 F7800.000
G1 E1.30000 F3600.00000
G1 X107.414 Y93.781 E0.25796 F1620.000
G1 X108.283 Y92.276 E0.10306
G1 X108.494 Y92.333 E0.01299
G1 X108.494 Y100.084 E0.45983
G1 X108.102 Y101.677 E0.09730
G1 X107.076 Y102.834 E0.09176
G1 X105.585 Y103.400 E0.09457
G1 X75.287 Y103.400 E1.79735
G1 X73.614 Y103.197 E0.09999
G1 X72.341 Y102.318 E0.09177
G1 X71.622 Y100.948 E0.09177
G1 X71.622 Y92.534 E0.49914
G1 X71.833 Y92.477 E0.01299
G1 X72.586 Y93.781 E0.08927
G1 X76.934 Y93.781 E0.25796
G1 X79.108 Y90.015 E0.25796
G1 X77.853 Y87.840 E0.14894
G1 X102.147 Y87.840 E1.44115
G1 X100.892 Y90.015 E0.14894
G1 X103.036 Y93.729 E0.25440
G1 F6240
G1 X105.289 Y93.755 E-1.23500
G1 E-0.06500 F3600.00000
G1 X72.586 Y86.249 F7800.000
G1 E1.30000 F3600.00000
G1 X71.833 Y87.552 E0.08927 F1080.000
G1 X71.622 Y87.495 E0.01299
G1 X71.622 Y82.374 E0.30380
G1 X71.833 Y82.317 E0.01299
G1 X72.586 Y83.620 E0.08927
G1 X76.934 Y83.620 E0.25797
G1 X76.934 Y86.249 E0.15591
G1 X72.646 Y86.249 E0.25441
G1 X72.860 Y86.724 F7800.000
G1 X71.358 Y89.327 E0.17828 F1458.000
G1 X71.146 Y89.270 E0.01299
G1 X71.146 Y80.599 E0.51440
G1 X71.358 Y80.542 E0.01299
G1 X72.860 Y83.145 E0.17828
G1 X76.660 Y83.145 E0.22538
G1 X78.559 Y79.855 E0.22538
G1 X76.660 Y76.564 E0.22538
G1 X73.686 Y76.564 E0.17641
G1 X73.665 Y76.301 E0.01565
G1 X74.760 Y76.128 E0.06575
G1 X75.069 Y76.177 E0.01853
G1 X75.258 Y76.154 E0.01135
G1 X105.072 Y76.154 E1.76860
G1 X105.260 Y76.131 E0.01123
G1 X105.403 Y76.154 E0.00858
G1 X105.673 Y76.154 E0.01600
G1 X105.866 Y76.227 E0.01227
G1 X106.335 Y76.301 E0.02815
G1 X106.314 Y76.564 E0.01565
G1 X103.340 Y76.564 E0.17641
G1 X101.441 Y79.855 E0.22538
G1 X103.340 Y83.145 E0.22538
G1 X107.140 Y83.145 E0.22538
G1 X108.758 Y80.341 E0.19207
G1 X108.970 Y80.398 E0.01299
G1 X108.970 Y89.472 E0.53829
G1 X108.758 Y89.528 E0.01299
G1 X107.140 Y86.724 E0.19207
G1 X103.340 Y86.724 E0.22538
G1 X101.441 Y90.015 E0.22538
G1 X103.340 Y93.305 E0.22538
G1 X107.140 Y93.305 E0.22538
G1 X108.758 Y90.501 E0.19207
G1 X108.970 Y90.558 E0.01299
G1 X108.970 Y100.142 E0.56855
G1 X108.536 Y101.904 E0.10768
G1 X107.354 Y103.238 E0.10567
G1 X105.673 Y103.875 E0.10670
G1 X75.258 Y103.875 E1.80422
G1 X73.440 Y103.655 E0.10866
G1 X71.974 Y102.643 E0.10568
G1 X71.146 Y101.065 E0.10568
G1 X71.146 Y90.759 E0.61140
G1 X71.358 Y90.702 E0.01299
G1 X72.860 Y93.305 E0.17828
G1 X76.660 Y93.305 E0.22538
G1 X78.559 Y90.015 E0.22538
G1 X76.660 Y86.724 E0.22538
G1 X72.920 Y86.724 E0.22182
G1 X72.484 Y86.587 F7800.000
G1 F6240
G1 X71.760 Y88.656 E-1.23500
G1 E-0.06500 F3600.00000
G1 X73.409 Y76.492 F7800.000
G1 E1.30000 F3600.00000
G1 X73.016 Y76.587 E0.02398 F1458.000
G1 X72.796 Y76.707 E0.01490
G1 X72.445 Y77.040 E0.02866
G1 X71.358 Y79.167 F7800.000
G1 X71.146 Y79.110 E0.01299 F1080.000
G1 X71.146 Y78.964 E0.00868
G1 X71.187 Y78.887 E0.00516
G1 X71.216 Y78.703 E0.01105
G1 X71.745 Y77.664 E0.06917
G1 X71.920 Y77.489 E0.01471
G1 X71.974 Y77.387 E0.00685
G1 X72.231 Y77.209 E0.01851
G1 X72.399 Y77.364 E0.01354
G1 X71.388 Y79.115 E0.11994
G1 X71.217 Y78.999 F7800.000
G1 F6240
G1 X71.146 Y79.110 E-0.13239
G1 F6240
G1 X71.146 Y78.964 E-0.08023
G1 F6240
G1 X71.187 Y78.887 E-0.04765
G1 F6240
G1 X71.216 Y78.703 E-0.10206
G1 F6240
G1 X71.745 Y77.664 E-0.63902
G1 F6240
G1 X71.920 Y77.489 E-0.13589
G1 F6240
G1 X71.974 Y77.387 E-0.06333
G1 F6240
G1 X72.026 Y77.351 E-0.03443
G1 E-0.06500 F3600.00000
G1 X106.591 Y76.491 F7800.000
G1 E1.30000 F3600.00000
G1 X106.984 Y76.582 E0.02394 F1458.000
G1 X107.210 Y76.704 E0.01522
G1 X107.568 Y77.040 E0.02916
G1 X107.598 Y77.358 F7800.000
G1 X107.796 Y77.206 E0.01485 F1080.000
G1 X108.255 Y77.664 E0.03848
G1 X108.428 Y78.003 E0.02256
G1 X108.536 Y78.125 E0.00966
G1 X108.579 Y78.299 E0.01066
G1 X108.784 Y78.703 E0.02687
G1 X108.837 Y79.038 E0.02012
G1 X108.614 Y79.117 E0.01408
G1 X107.628 Y77.410 E0.11696
G1 X107.847 Y77.336 F7800.000
G1 F6240
G1 X107.796 Y77.206 E-0.14516
G1 F6240
G1 X108.255 Y77.664 E-0.35549
G1 F6240
G1 X108.428 Y78.003 E-0.20842
G1 F6240
G1 X108.536 Y78.125 E-0.08929
G1 F6240
G1 X108.579 Y78.299 E-0.09850
G1 F6240
G1 X108.784 Y78.703 E-0.24824
G1 F6240
G1 X108.810 Y78.865 E-0.08989
G1 E-0.06500 F3600.00000
G1 X108.720 Y80.907 F7800.000
G1 E1.30000 F3600.00000
G1 X108.450 Y81.915 E0.06188 F360.000
G1 X108.245 Y82.682 F7800.000
G1 X107.975 Y83.690 E0.06188 F360.000
G1 X108.211 Y84.260 F7800.000
G1 X107.961 Y84.010 E0.02192 F1620.000
G1 X107.152 Y83.904 E0.05057
G1 X108.211 Y84.963 E0.09283
G1 X108.211 Y85.666 E0.04357
G1 X106.449 Y83.904 E0.15444
G1 X105.746 Y83.904 E0.04357
G1 X107.799 Y85.957 E0.17996
G1 X107.105 Y85.965 E0.04304
G1 X105.044 Y83.904 E0.18072
G1 X104.341 Y83.904 E0.04357
G1 X106.402 Y85.965 E0.18072
G1 X105.699 Y85.965 E0.04357
G1 X103.638 Y83.904 E0.18072
G1 X103.349 Y84.318 E0.03129
G1 X104.996 Y85.965 E0.14443
G1 X104.294 Y85.965 E0.04357
G1 X103.349 Y85.021 E0.08281
G1 X103.349 Y85.724 E0.04357
G1 X103.591 Y85.965 E0.02120
G1 X107.975 Y86.180 F7800.000
G1 X108.245 Y87.187 E0.06188 F360.000
G1 X108.450 Y87.955 F7800.000
G1 X108.720 Y88.962 E0.06188 F360.000
G1 F6240
G1 X108.450 Y87.955 E-0.57175
G1 E-0.72825 F3600.00000
G1 X108.720 Y91.067 F7800.000
G1 E1.30000 F3600.00000
G1 X108.450 Y92.075 E0.06188 F360.000
G1 X108.245 Y92.842 F7800.000
G1 X107.975 Y93.850 E0.06188 F360.000
G1 X108.211 Y94.420 F7800.000
G1 X107.961 Y94.170 E0.02104 F1620.000
G1 X107.180 Y94.064 E0.04688
G1 X108.211 Y95.095 E0.08674
G1 X108.211 Y95.769 E0.04015
G1 X106.506 Y94.064 E0.14351
G1 X105.831 Y94.064 E0.04015
G1 X108.211 Y96.444 E0.20029
G1 X108.211 Y97.119 E0.04015
G1 X105.156 Y94.064 E0.25707
G1 X104.482 Y94.064 E0.04015
G1 X108.211 Y97.793 E0.31385
G1 X108.211 Y98.468 E0.04015
G1 X103.807 Y94.064 E0.37062
G1 X103.132 Y94.064 E0.04015
G1 X108.211 Y99.143 E0.42740
G1 X108.211 Y99.817 E0.04015
G1 X96.517 Y88.124 E0.98406
G1 X97.192 Y88.124 E0.04015
G1 X102.413 Y93.345 E0.43939
G1 X101.492 Y91.749 F7800.000
G1 X97.867 Y88.124 E0.30506 F1620.000
G1 X98.541 Y88.124 E0.04015
G1 X100.570 Y90.152 E0.17073
G1 X100.790 Y89.698 E0.03006
G1 X99.216 Y88.124 E0.13246
G1 X99.891 Y88.124 E0.04015
G1 X101.037 Y89.270 E0.09647
G1 X101.284 Y88.842 E0.02939
G1 X100.565 Y88.124 E0.06047
G1 X101.240 Y88.124 E0.04015
G1 X101.531 Y88.414 E0.02447
G1 X95.842 Y88.124 F7800.000
G1 X108.141 Y100.422 E1.03495 F1620.000
G1 X108.008 Y100.963 E0.03317
G1 X95.168 Y88.124 E1.08050
G1 X94.493 Y88.124 E0.04015
G1 X107.874 Y101.505 E1.12605
G1 X107.587 Y101.893 E0.02871
G1 X93.818 Y88.124 E1.15869
G1 X93.144 Y88.124 E0.04015
G1 X107.270 Y102.250 E1.18879
G1 X106.939 Y102.594 E0.02839
G1 X92.469 Y88.124 E1.21770
G1 X91.794 Y88.124 E0.04015
G1 X106.465 Y102.794 E1.23457
G1 X105.976 Y102.980 E0.03113
G1 X91.120 Y88.124 E1.25019
G1 X90.445 Y88.124 E0.04015
G1 X105.438 Y103.116 E1.26167
G1 X104.763 Y103.116 E0.04015
G1 X89.770 Y88.124 E1.26167
G1 X89.095 Y88.124 E0.04015
G1 X104.088 Y103.116 E1.26167
G1 X103.414 Y103.116 E0.04015
G1 X88.421 Y88.124 E1.26167
G1 X87.746 Y88.124 E0.04015
G1 X102.739 Y103.116 E1.26167
G1 X102.064 Y103.116 E0.04015
G1 X87.071 Y88.124 E1.26167
G1 X86.397 Y88.124 E0.04015
G1 X101.390 Y103.116 E1.26167
G1 X100.715 Y103.116 E0.04015
G1 X85.722 Y88.124 E1.26167
G1 X85.047 Y88.124 E0.04015
G1 X100.040 Y103.116 E1.26167
G1 X99.365 Y103.116 E0.04015
G1 X84.373 Y88.124 E1.26167
G1 X83.698 Y88.124 E0.04015
G1 X98.691 Y103.116 E1.26167
G1 X98.016 Y103.116 E0.04015
G1 X83.023 Y88.124 E1.26167
G1 X82.349 Y88.124 E0.04015
G1 X97.341 Y103.116 E1.26167
G1 X96.667 Y103.116 E0.04015
G1 X81.674 Y88.124 E1.26167
G1 X80.999 Y88.124 E0.04015
G1 X95.992 Y103.116 E1.26167
G1 X95.317 Y103.116 E0.04015
G1 X80.324 Y88.124 E1.26167
G1 X79.650 Y88.124 E0.04015
G1 X94.643 Y103.116 E1.26167
G1 X93.968 Y103.116 E0.04015
G1 X78.975 Y88.124 E1.26167
G1 X78.578 Y88.401 E0.02883
G1 X93.293 Y103.116 E1.23830
G1 X92.618 Y103.116 E0.04015
G1 X79.438 Y89.936 E1.10914
G1 X79.191 Y90.364 E0.02939
G1 X91.944 Y103.116 E1.07314
G1 X91.269 Y103.116 E0.04015
G1 X78.944 Y90.792 E1.03715
G1 X78.697 Y91.219 E0.02939
G1 X90.594 Y103.116 E1.00115
G1 X89.920 Y103.116 E0.04015
G1 X78.450 Y91.647 E0.96516
G1 X78.204 Y92.075 E0.02939
G1 X89.245 Y103.116 E0.92916
G1 X88.570 Y103.116 E0.04015
G1 X77.957 Y92.503 E0.89317
G1 X77.710 Y92.930 E0.02939
G1 X87.896 Y103.116 E0.85717
G1 X87.221 Y103.116 E0.04015
G1 X77.463 Y93.358 E0.82118
G1 X77.216 Y93.786 E0.02939
G1 X86.546 Y103.116 E0.78518
G1 X85.872 Y103.116 E0.04015
G1 X76.819 Y94.064 E0.76179
G1 X76.144 Y94.064 E0.04015
G1 X85.197 Y103.116 E0.76179
G1 X84.522 Y103.116 E0.04015
G1 X75.470 Y94.064 E0.76179
G1 X74.795 Y94.064 E0.04015
G1 X83.847 Y103.116 E0.76179
G1 X83.173 Y103.116 E0.04015
G1 X74.120 Y94.064 E0.76179
G1 X73.446 Y94.064 E0.04015
G1 X82.498 Y103.116 E0.76179
G1 X81.823 Y103.116 E0.04015
G1 X72.771 Y94.064 E0.76179
G1 X72.281 Y94.249 E0.03116
G1 X81.149 Y103.116 E0.74624
G1 X80.474 Y103.116 E0.04015
G1 X71.905 Y94.548 E0.72108
G1 X71.905 Y95.222 E0.04015
G1 X79.799 Y103.116 E0.66430
G1 X79.125 Y103.116 E0.04015
G1 X71.905 Y95.897 E0.60752
G1 X71.905 Y96.572 E0.04015
G1 X78.450 Y103.116 E0.55075
G1 X77.775 Y103.116 E0.04015
G1 X71.905 Y97.246 E0.49397
G1 X71.905 Y97.921 E0.04015
G1 X77.100 Y103.116 E0.43719
G1 X76.426 Y103.116 E0.04015
G1 X71.905 Y98.596 E0.38041
G1 X71.905 Y99.271 E0.04015
G1 X75.751 Y103.116 E0.32364
G1 X75.030 Y103.070 E0.04299
