; generated by Slic3r 1.2.9 on 2019-03-11 at 19:35:27

; external perimeters extrusion width = 0.40mm
; perimeters extrusion width = 0.56mm
; infill extrusion width = 0.56mm
; solid infill extrusion width = 0.56mm
; top infill extrusion width = 0.56mm

M107
M190 S60 ; set bed temperature
M104 S215 ; set temperature
G28 ; home all axes
G92 E0.0 ; reset extruder
M109 S215 ; wait for temperature to be reached
G21 ; set units to millimeters
G90 ; use absolute coordinates
M83 ; use relative distances for extrusion
G1 E-1.30000 F3600.00000
G1 Z0.300 F7800.000
G1 X69.737 Y60.844 F7800.000
G1 E1.30000 F3600.00000
M204 S500
G1 X71.001 Y59.580 E0.10607 F2160.000
G1 X71.243 Y59.373 E0.01887
G1 X72.693 Y58.319 E0.10636
G1 X72.961 Y58.155 E0.01862
G1 X74.560 Y57.341 E0.10645
G1 X74.850 Y57.221 E0.01862
G1 X76.545 Y56.669 E0.10573
G1 X76.858 Y56.594 E0.01910
G1 X78.629 Y56.313 E0.10641
G1 X79.840 Y56.253 E0.07191
G1 X100.160 Y56.253 E1.20542
G1 X101.043 Y56.287 E0.05244
G1 X101.369 Y56.313 E0.01935 F2160.000
G1 X103.134 Y56.592 E0.10601
G1 X103.447 Y56.667 E0.01914
G1 X105.150 Y57.221 E0.10621
G1 X105.440 Y57.341 E0.01862
G1 X107.039 Y58.155 E0.10644
G1 X107.307 Y58.319 E0.01862
G1 X108.757 Y59.373 E0.10637
G1 X108.996 Y59.577 E0.01861
G1 X110.263 Y60.844 E0.10632
G1 X110.471 Y61.088 E0.01900
G1 X111.521 Y62.533 E0.10598
G1 X111.685 Y62.801 E0.01862
G1 X112.499 Y64.400 E0.10645
G1 X112.619 Y64.690 E0.01862
G1 X113.173 Y66.393 E0.10621
G1 X113.247 Y66.701 E0.01879
G1 X113.527 Y68.471 E0.10635
G1 X113.587 Y69.680 E0.07179
G1 X113.587 Y110.320 E2.41084
G1 X113.527 Y111.529 E0.07178
G1 X113.246 Y113.302 E0.10653
G1 X113.173 Y113.607 E0.01861
G1 X112.619 Y115.310 E0.10621
G1 X112.499 Y115.600 E0.01862
G1 X111.685 Y117.199 E0.10645
G1 X111.521 Y117.467 E0.01862
G1 X110.467 Y118.917 E0.10636
G1 X110.263 Y119.156 E0.01861
G1 X109.004 Y120.416 E0.10569
G1 X108.757 Y120.627 E0.01925
G1 X107.309 Y121.679 E0.10621
G1 X107.039 Y121.845 E0.01878
G1 X105.444 Y122.658 E0.10618
G1 X105.150 Y122.779 E0.01887
G1 X103.448 Y123.333 E0.10621
G1 X103.142 Y123.406 E0.01861
G1 X101.378 Y123.686 E0.10601
G1 X100.160 Y123.747 E0.07232
G1 X79.840 Y123.747 E1.20542
G1 X78.631 Y123.687 E0.07178
G1 X76.866 Y123.408 E0.10603
G1 X76.553 Y123.333 E0.01913
G1 X74.850 Y122.779 E0.10621
G1 X74.560 Y122.659 E0.01862
G1 X72.961 Y121.845 E0.10644
G1 X72.693 Y121.681 E0.01862
G1 X71.243 Y120.627 E0.10637
G1 X71.004 Y120.423 E0.01861
G1 X69.737 Y119.156 E0.10631
G1 X69.529 Y118.912 E0.01900
G1 X68.479 Y117.467 E0.10598
G1 X68.316 Y117.200 E0.01853
G1 X67.501 Y115.600 E0.10654
G1 X67.378 Y115.305 E0.01895
G1 X66.827 Y113.607 E0.10589
G1 X66.754 Y113.302 E0.01861
G1 X66.473 Y111.529 E0.10653
G1 X66.413 Y110.320 E0.07178
G1 X66.413 Y69.680 E2.41084
G1 X66.448 Y68.784 E0.05317
G1 X66.473 Y68.471 E0.01862
G1 X66.754 Y66.698 E0.10653
G1 X66.828 Y66.388 E0.01887
G1 X67.381 Y64.690 E0.10596
G1 X67.501 Y64.400 E0.01864
G1 X68.315 Y62.801 E0.10643
G1 X68.482 Y62.529 E0.01892
G1 X69.533 Y61.083 E0.10607
G1 X69.698 Y60.890 E0.01506
G1 X70.099 Y61.153 F7800.000
G1 X71.310 Y59.941 E0.10165 F2160.000
G1 X71.552 Y59.735 E0.01885
G1 X72.942 Y58.725 E0.10193
G1 X73.210 Y58.561 E0.01862
G1 X74.742 Y57.780 E0.10202
G1 X75.032 Y57.660 E0.01862
G1 X76.656 Y57.131 E0.10133
G1 X76.969 Y57.056 E0.01908
G1 X78.667 Y56.787 E0.10198
G1 X79.840 Y56.729 E0.06969
G1 X100.160 Y56.729 E1.20542
G1 X101.007 Y56.762 E0.05026
G1 X101.331 Y56.787 E0.01932 F2160.000
G1 X103.022 Y57.054 E0.10151
G1 X103.336 Y57.130 E0.01921
G1 X104.968 Y57.660 E0.10179
G1 X105.258 Y57.780 E0.01862
G1 X106.790 Y58.561 E0.10201
G1 X107.058 Y58.725 E0.01862
G1 X108.448 Y59.735 E0.10194
G1 X108.687 Y59.939 E0.01861
G1 X109.901 Y61.153 E0.10189
G1 X110.109 Y61.397 E0.01898
G1 X111.115 Y62.782 E0.10157
G1 X111.279 Y63.050 E0.01862
G1 X112.060 Y64.582 E0.10202
G1 X112.180 Y64.872 E0.01862
G1 X112.710 Y66.504 E0.10179
G1 X112.784 Y66.812 E0.01878
G1 X113.053 Y68.509 E0.10192
G1 X113.111 Y69.680 E0.06957
G1 X113.111 Y110.320 E2.41084
G1 X113.053 Y111.491 E0.06957
G1 X112.784 Y113.191 E0.10209
G1 X112.710 Y113.496 E0.01861
G1 X112.180 Y115.128 E0.10179
G1 X112.060 Y115.418 E0.01862
G1 X111.279 Y116.950 E0.10202
G1 X111.115 Y117.218 E0.01862
G1 X110.105 Y118.608 E0.10193
G1 X109.901 Y118.847 E0.01861
G1 X108.695 Y120.055 E0.10129
G1 X108.448 Y120.265 E0.01923
G1 X107.060 Y121.274 E0.10179
G1 X106.790 Y121.439 E0.01878
G1 X105.262 Y122.218 E0.10176
G1 X104.968 Y122.340 E0.01886
G1 X103.336 Y122.870 E0.10179
G1 X103.031 Y122.944 E0.01861
G1 X101.340 Y123.212 E0.10160
G1 X100.160 Y123.271 E0.07008
G1 X79.840 Y123.271 E1.20542
G1 X78.669 Y123.213 E0.06957
G1 X76.977 Y122.946 E0.10161
G1 X76.664 Y122.870 E0.01911
G1 X75.032 Y122.340 E0.10179
G1 X74.742 Y122.220 E0.01862
G1 X73.210 Y121.439 E0.10201
G1 X72.942 Y121.275 E0.01862
G1 X71.552 Y120.265 E0.10194
G1 X71.313 Y120.061 E0.01861
G1 X70.099 Y118.847 E0.10189
G1 X69.891 Y118.603 E0.01898
G1 X68.885 Y117.218 E0.10157
G1 X68.722 Y116.952 E0.01853
G1 X67.940 Y115.418 E0.10211
G1 X67.818 Y115.123 E0.01893
G1 X67.290 Y113.496 E0.10148
G1 X67.216 Y113.191 E0.01861
G1 X66.947 Y111.491 E0.10210
G1 X66.889 Y110.320 E0.06957
G1 X66.889 Y69.680 E2.41084
G1 X66.947 Y68.509 E0.06957
G1 X67.216 Y66.809 E0.10210
G1 X67.291 Y66.500 E0.01886
G1 X67.820 Y64.872 E0.10154
G1 X67.940 Y64.582 E0.01864
G1 X68.721 Y63.050 E0.10200
G1 X68.887 Y62.778 E0.01891
G1 X69.895 Y61.392 E0.10165
G1 X70.060 Y61.199 E0.01506
G1 X70.460 Y61.462 F7800.000
G1 X71.619 Y60.303 E0.09724 F2160.000
G1 X71.861 Y60.097 E0.01884
G1 X73.190 Y59.130 E0.09751
G1 X73.458 Y58.966 E0.01862
G1 X74.924 Y58.219 E0.09759
G1 X75.214 Y58.099 E0.01862
G1 X76.768 Y57.594 E0.09693
G1 X77.080 Y57.519 E0.01906
G1 X78.704 Y57.261 E0.09755
G1 X79.840 Y57.204 E0.06747
G1 X100.160 Y57.204 E1.20542
G1 X100.970 Y57.236 E0.04807
G1 X101.294 Y57.261 E0.01929 F2160.000
G1 X102.912 Y57.517 E0.09719
G1 X103.225 Y57.592 E0.01909
G1 X104.786 Y58.099 E0.09737
G1 X105.076 Y58.220 E0.01862
G1 X106.542 Y58.966 E0.09758
G1 X106.809 Y59.130 E0.01862
G1 X108.139 Y60.097 E0.09751
G1 X108.378 Y60.300 E0.01861
G1 X109.540 Y61.462 E0.09746
G1 X109.747 Y61.705 E0.01897
G1 X110.710 Y63.030 E0.09716
G1 X110.874 Y63.298 E0.01862
G1 X111.620 Y64.764 E0.09759
G1 X111.741 Y65.054 E0.01862
G1 X112.248 Y66.615 E0.09737
G1 X112.322 Y66.923 E0.01878
G1 X112.579 Y68.546 E0.09750
G1 X112.636 Y69.680 E0.06736
G1 X112.636 Y110.320 E2.41084
G1 X112.579 Y111.454 E0.06736
G1 X112.321 Y113.080 E0.09766
G1 X112.248 Y113.385 E0.01861
G1 X111.741 Y114.946 E0.09737
G1 X111.620 Y115.236 E0.01862
G1 X110.874 Y116.702 E0.09759
G1 X110.710 Y116.970 E0.01862
G1 X109.744 Y118.299 E0.09750
G1 X109.540 Y118.538 E0.01861
G1 X108.385 Y119.693 E0.09689
G1 X108.139 Y119.903 E0.01920
G1 X106.812 Y120.868 E0.09737
G1 X106.542 Y121.034 E0.01877
G1 X105.080 Y121.779 E0.09734
G1 X104.786 Y121.901 E0.01885
G1 X103.225 Y122.408 E0.09737
G1 X102.920 Y122.481 E0.01861
G1 X101.302 Y122.738 E0.09718
G1 X100.160 Y122.796 E0.06785
G1 X79.840 Y122.796 E1.20542
G1 X78.706 Y122.739 E0.06735
G1 X77.088 Y122.483 E0.09720
G1 X76.775 Y122.408 E0.01909
G1 X75.214 Y121.901 E0.09737
G1 X74.924 Y121.780 E0.01862
G1 X73.458 Y121.034 E0.09758
G1 X73.191 Y120.870 E0.01862
G1 X71.861 Y119.903 E0.09751
G1 X71.622 Y119.700 E0.01861
G1 X70.460 Y118.538 E0.09746
G1 X70.253 Y118.295 E0.01897
G1 X69.290 Y116.970 E0.09716
G1 X69.127 Y116.703 E0.01853
G1 X68.380 Y115.236 E0.09767
G1 X68.257 Y114.942 E0.01892
G1 X67.752 Y113.385 E0.09707
G1 X67.679 Y113.080 E0.01861
G1 X67.421 Y111.454 E0.09767
G1 X67.364 Y110.320 E0.06735
G1 X67.364 Y69.680 E2.41084
G1 X67.421 Y68.546 E0.06735
G1 X67.679 Y66.920 E0.09767
G1 X67.753 Y66.611 E0.01885
G1 X68.259 Y65.054 E0.09713
G1 X68.380 Y64.764 E0.01864
G1 X69.126 Y63.298 E0.09757
G1 X69.293 Y63.027 E0.01890
G1 X70.257 Y61.701 E0.09724
G1 X70.421 Y61.508 E0.01506
G1 F6240
G1 X71.619 Y60.303 E-0.93115
G1 F6240
G1 X71.861 Y60.097 E-0.17410
G1 F6240
G1 X72.052 Y59.957 E-0.12974
G1 E-0.06500 F3600.00000
G1 X101.351 Y110.707 F7800.000
G1 E1.30000 F3600.00000
G1 X101.276 Y110.888 E0.01166 F1620.000
G1 X101.173 Y111.056 E0.01165
G1 X101.045 Y111.205 E0.01165
G1 X100.896 Y111.333 E0.01165
G1 X100.728 Y111.436 E0.01165
G1 X100.547 Y111.511 E0.01166
G1 X100.356 Y111.557 E0.01165
G1 X100.131 Y111.574 E0.01340
G1 X79.870 Y111.574 E1.20193
G1 X79.643 Y111.556 E0.01349
G1 X79.453 Y111.511 E0.01158
G1 X79.272 Y111.436 E0.01166
G1 X79.104 Y111.333 E0.01165
G1 X78.955 Y111.205 E0.01165
G1 X78.827 Y111.056 E0.01165
G1 X78.725 Y110.890 E0.01158
G1 X78.649 Y110.707 E0.01175
G1 X78.603 Y110.516 E0.01164
G1 X78.586 Y110.291 E0.01340
G1 X78.586 Y69.709 E2.40737
G1 X78.603 Y69.484 E0.01340
G1 X78.649 Y69.293 E0.01165
G1 X78.724 Y69.112 E0.01166
G1 X78.827 Y68.944 E0.01165
G1 X78.955 Y68.795 E0.01165
G1 X79.104 Y68.667 E0.01165
G1 X79.272 Y68.564 E0.01165
G1 X79.453 Y68.489 E0.01166
G1 X79.644 Y68.443 E0.01165
G1 X79.869 Y68.426 E0.01340
G1 X100.132 Y68.426 E1.20204
G1 X100.356 Y68.443 E0.01331 F1620.000
G1 X100.547 Y68.489 E0.01165
G1 X100.728 Y68.564 E0.01166
G1 X100.896 Y68.667 E0.01165
G1 X101.045 Y68.795 E0.01165
G1 X101.173 Y68.944 E0.01165
G1 X101.276 Y69.112 E0.01165
G1 X101.351 Y69.293 E0.01166
G1 X101.396 Y69.483 E0.01158
G1 X101.414 Y69.710 E0.01349
G1 X101.414 Y110.291 E2.40735
G1 X101.397 Y110.516 E0.01340
G1 X101.365 Y110.649 E0.00809
G1 X101.790 Y110.889 F7800.000
G1 X101.701 Y111.105 E0.01388 F1458.000
G1 X101.559 Y111.336 E0.01610
G1 X101.383 Y111.543 E0.01609
G1 X101.176 Y111.719 E0.01609
G1 X100.945 Y111.861 E0.01610
G1 X100.694 Y111.965 E0.01610
G1 X100.431 Y112.028 E0.01609
G1 X100.149 Y112.050 E0.01673
G1 X79.851 Y112.050 E1.20416
G1 X79.568 Y112.028 E0.01682
G1 X79.306 Y111.965 E0.01601
G1 X79.055 Y111.861 E0.01610
G1 X78.824 Y111.719 E0.01610
G1 X78.617 Y111.543 E0.01609
G1 X78.441 Y111.336 E0.01609
G1 X78.300 Y111.106 E0.01601
G1 X78.195 Y110.854 E0.01619
G1 X78.132 Y110.591 E0.01609
G1 X78.110 Y110.309 E0.01673
G1 X78.110 Y69.691 E2.40958
G1 X78.132 Y69.409 E0.01673
G1 X78.195 Y69.146 E0.01609
G1 X78.299 Y68.895 E0.01610
G1 X78.441 Y68.664 E0.01610
G1 X78.617 Y68.457 E0.01609
G1 X78.824 Y68.281 E0.01609
G1 X79.055 Y68.139 E0.01610
G1 X79.306 Y68.035 E0.01610
G1 X79.569 Y67.972 E0.01609
G1 X79.851 Y67.950 E0.01673
G1 X100.151 Y67.950 E1.20425
G1 X100.431 Y67.972 E0.01664 F1458.000
G1 X100.694 Y68.035 E0.01609
G1 X100.945 Y68.139 E0.01610
G1 X101.176 Y68.281 E0.01610
G1 X101.383 Y68.457 E0.01609
G1 X101.559 Y68.664 E0.01609
G1 X101.701 Y68.895 E0.01610
G1 X101.805 Y69.146 E0.01610
G1 X101.868 Y69.408 E0.01601
G1 X101.890 Y69.691 E0.01682
G1 X101.890 Y110.309 E2.40958
G1 X101.868 Y110.591 E0.01673
G1 X101.810 Y110.832 E0.01475
G1 X101.560 Y110.930 F7800.000
G1 X79.017 Y110.694 F7800.000
G1 X79.466 Y111.143 E0.03771 F1620.000
G1 X80.288 Y111.291 E0.04965
G1 X78.869 Y109.872 E0.11926
G1 X78.869 Y109.198 E0.04006
G1 X80.962 Y111.291 E0.17592
G1 X81.636 Y111.291 E0.04006
G1 X78.869 Y108.524 E0.23258
G1 X78.869 Y107.850 E0.04006
G1 X82.310 Y111.291 E0.28924
G1 X82.984 Y111.291 E0.04006
G1 X78.869 Y107.176 E0.34589
G1 X78.869 Y106.502 E0.04006
G1 X83.658 Y111.291 E0.40255
G1 X84.332 Y111.291 E0.04006
G1 X78.869 Y105.828 E0.45921
G1 X78.869 Y105.154 E0.04006
G1 X85.006 Y111.291 E0.51586
G1 X85.680 Y111.291 E0.04006
G1 X78.869 Y104.480 E0.57252
G1 X78.869 Y103.806 E0.04006
G1 X86.354 Y111.291 E0.62918
G1 X87.028 Y111.291 E0.04006
G1 X78.869 Y103.132 E0.68584
G1 X78.869 Y102.458 E0.04006
G1 X87.702 Y111.291 E0.74249
G1 X88.376 Y111.291 E0.04006
G1 X78.869 Y101.784 E0.79915
G1 X78.869 Y101.110 E0.04006
G1 X89.050 Y111.291 E0.85581
G1 X89.724 Y111.291 E0.04006
G1 X78.869 Y100.436 E0.91246
G1 X78.869 Y99.763 E0.04006
G1 X90.397 Y111.291 E0.96912
G1 X91.071 Y111.291 E0.04006
G1 X78.869 Y99.089 E1.02578
G1 X78.869 Y98.415 E0.04006
G1 X91.745 Y111.291 E1.08244
G1 X92.419 Y111.291 E0.04006
G1 X78.869 Y97.741 E1.13909
G1 X78.869 Y97.067 E0.04006
G1 X93.093 Y111.291 E1.19575
G1 X93.767 Y111.291 E0.04006
G1 X78.869 Y96.393 E1.25241
G1 X78.869 Y95.719 E0.04006
G1 X94.441 Y111.291 E1.30906
G1 X95.115 Y111.291 E0.04006
G1 X78.869 Y95.045 E1.36572
G1 X78.869 Y94.371 E0.04006
G1 X95.789 Y111.291 E1.42238
G1 X96.463 Y111.291 E0.04006
G1 X78.869 Y93.697 E1.47903
G1 X78.869 Y93.023 E0.04006
G1 X97.137 Y111.291 E1.53569
G1 X97.811 Y111.291 E0.04006
G1 X78.869 Y92.349 E1.59235
G1 X78.869 Y91.675 E0.04006
G1 X98.485 Y111.291 E1.64901
G1 X99.159 Y111.291 E0.04006
G1 X78.869 Y91.001 E1.70566
G1 X78.869 Y90.327 E0.04006
G1 X99.833 Y111.291 E1.76232
G1 X100.474 Y111.258 E0.03816
G1 X78.869 Y89.653 E1.81621
G1 X78.869 Y88.979 E0.04006
G1 X100.885 Y110.994 E1.85070
G1 X101.117 Y110.553 E0.02966
G1 X78.869 Y88.305 E1.87025
G1 X78.869 Y87.631 E0.04006
G1 X101.131 Y109.893 E1.87141
G1 X101.131 Y109.219 E0.04006
G1 X78.869 Y86.957 E1.87141
G1 X78.869 Y86.283 E0.04006
G1 X101.131 Y108.545 E1.87141
G1 X101.131 Y107.871 E0.04006
G1 X78.869 Y85.609 E1.87141
G1 X78.869 Y84.935 E0.04006
G1 X101.131 Y107.197 E1.87141
G1 X101.131 Y106.523 E0.04006
G1 X78.869 Y84.261 E1.87141
G1 X78.869 Y83.587 E0.04006
G1 X101.131 Y105.849 E1.87141
G1 X101.131 Y105.175 E0.04006
G1 X78.869 Y82.913 E1.87141
G1 X78.869 Y82.239 E0.04006
G1 X101.131 Y104.501 E1.87141
G1 X101.131 Y103.827 E0.04006
G1 X78.869 Y81.565 E1.87141
G1 X78.869 Y80.891 E0.04006
G1 X101.131 Y103.153 E1.87141
G1 X101.131 Y102.479 E0.04006
G1 X78.869 Y80.217 E1.87141
G1 X78.869 Y79.543 E0.04006
G1 X101.131 Y101.805 E1.87141
G1 X101.131 Y101.131 E0.04006
G1 X78.869 Y78.869 E1.87141
G1 X78.869 Y78.195 E0.04006
G1 X101.131 Y100.457 E1.87141
G1 X101.131 Y99.783 E0.04006
G1 X78.869 Y77.521 E1.87141
G1 X78.869 Y76.847 E0.04006
G1 X101.131 Y99.109 E1.87141
G1 X101.131 Y98.435 E0.04006
G1 X78.869 Y76.173 E1.87141
G1 X78.869 Y75.499 E0.04006
G1 X101.131 Y97.761 E1.87141
G1 X101.131 Y97.087 E0.04006
G1 X78.869 Y74.825 E1.87141
G1 X78.869 Y74.151 E0.04006
G1 X101.131 Y96.413 E1.87141
G1 X101.131 Y95.739 E0.04006
G1 X78.869 Y73.477 E1.87141
G1 X78.869 Y72.803 E0.04006
G1 X101.131 Y95.065 E1.87141
G1 X101.131 Y94.391 E0.04006
G1 X78.869 Y72.129 E1.87141
G1 X78.869 Y71.455 E0.04006
G1 X101.131 Y93.717 E1.87141
G1 X101.131 Y93.043 E0.04006
G1 X78.869 Y70.781 E1.87141
G1 X78.869 Y70.107 E0.04006
G1 X101.131 Y92.369 E1.87141
G1 X101.131 Y91.695 E0.04006
G1 X78.883 Y69.447 E1.87025
G1 X79.115 Y69.006 E0.02966
G1 X101.131 Y91.021 E1.85070
G1 X101.131 Y90.347 E0.04006
G1 X79.526 Y68.742 E1.81622
G1 X80.167 Y68.709 E0.03816
G1 X101.131 Y89.673 E1.76233
G1 X101.131 Y88.999 E0.04006
G1 X80.841 Y68.709 E1.70567
G1 X81.515 Y68.709 E0.04006
G1 X101.131 Y88.325 E1.64901
G1 X101.131 Y87.651 E0.04006
G1 X82.189 Y68.709 E1.59235
G1 X82.863 Y68.709 E0.04006
G1 X101.131 Y86.977 E1.53570
G1 X101.131 Y86.303 E0.04006
G1 X83.537 Y68.709 E1.47904
G1 X84.211 Y68.709 E0.04006
G1 X101.131 Y85.629 E1.42238
G1 X101.131 Y84.955 E0.04006
G1 X84.885 Y68.709 E1.36572
G1 X85.559 Y68.709 E0.04006
G1 X101.131 Y84.281 E1.30907
G1 X101.131 Y83.607 E0.04006
G1 X86.233 Y68.709 E1.25241
G1 X86.907 Y68.709 E0.04006
G1 X101.131 Y82.933 E1.19575
G1 X101.131 Y82.260 E0.04006
G1 X87.581 Y68.709 E1.13909
G1 X88.255 Y68.709 E0.04006
G1 X101.131 Y81.586 E1.08244
G1 X101.131 Y80.912 E0.04006
G1 X88.929 Y68.709 E1.02578
G1 X89.603 Y68.709 E0.04006
G1 X101.131 Y80.238 E0.96912
G1 X101.131 Y79.564 E0.04006
G1 X90.276 Y68.709 E0.91246
G1 X90.950 Y68.709 E0.04006
G1 X101.131 Y78.890 E0.85581
G1 X101.131 Y78.216 E0.04006
G1 X91.624 Y68.709 E0.79915
G1 X92.298 Y68.709 E0.04006
G1 X101.131 Y77.542 E0.74249
G1 X101.131 Y76.868 E0.04006
G1 X92.972 Y68.709 E0.68583
G1 X93.646 Y68.709 E0.04006
G1 X101.131 Y76.194 E0.62918
G1 X101.131 Y75.520 E0.04006
G1 X94.320 Y68.709 E0.57252
G1 X94.994 Y68.709 E0.04006
G1 X101.131 Y74.846 E0.51586
G1 X101.131 Y74.172 E0.04006
G1 X95.668 Y68.709 E0.45920
G1 X96.342 Y68.709 E0.04006
G1 X101.131 Y73.498 E0.40255
G1 X101.131 Y72.824 E0.04006
G1 X97.016 Y68.709 E0.34589
G1 X97.690 Y68.709 E0.04006
G1 X101.131 Y72.150 E0.28923
G1 X101.131 Y71.476 E0.04006
G1 X98.364 Y68.709 E0.23257
G1 X99.038 Y68.709 E0.04006
