; generated by Slic3r 1.2.9 on 2019-03-10 at 11:27:16

; external perimeters extrusion width = 0.40mm
; perimeters extrusion width = 0.56mm
; infill extrusion width = 0.56mm
; solid infill extrusion width = 0.56mm
; top infill extrusion width = 0.56mm

M107
M190 S60 ; set bed temperature
M104 S215 ; set temperature
G28 ; home all axes
G92 E0.0 ; reset extruder
M109 S215 ; wait for temperature to be reached
G21 ; set units to millimeters
G90 ; use absolute coordinates
M83 ; use relative distances for extrusion
G1 E-1.30000 F3600.00000
G1 Z0.300 F7800.000
G1 X72.237 Y63.344 F7800.000
G1 E1.30000 F3600.00000
M204 S500
G1 X73.505 Y62.076 E0.10633 F2160.000
G1 X73.744 Y61.873 E0.01862
G1 X75.193 Y60.819 E0.10631
G1 X75.461 Y60.655 E0.01862
G1 X77.059 Y59.841 E0.10637
G1 X77.349 Y59.721 E0.01865
G1 X79.053 Y59.167 E0.10629
G1 X79.358 Y59.094 E0.01862
G1 X81.132 Y58.813 E0.10650
G1 X82.340 Y58.753 E0.07178
G1 X97.660 Y58.753 E0.90881
G1 X98.556 Y58.788 E0.05317
G1 X98.868 Y58.813 E0.01862 F2160.000
G1 X100.641 Y59.094 E0.10647
G1 X100.947 Y59.167 E0.01865
G1 X102.650 Y59.721 E0.10626
G1 X102.941 Y59.841 E0.01864
G1 X104.539 Y60.655 E0.10640
G1 X104.807 Y60.819 E0.01863
G1 X106.256 Y61.873 E0.10631
G1 X106.495 Y62.077 E0.01862
G1 X107.763 Y63.344 E0.10633
G1 X107.966 Y63.582 E0.01862
G1 X109.021 Y65.034 E0.10644
G1 X109.185 Y65.302 E0.01865
G1 X109.999 Y66.900 E0.10637
G1 X110.120 Y67.190 E0.01865
G1 X110.673 Y68.894 E0.10625
G1 X110.746 Y69.199 E0.01861
G1 X111.027 Y70.971 E0.10643
G1 X111.087 Y72.180 E0.07182
G1 X111.087 Y107.820 E2.11423
G1 X111.027 Y109.029 E0.07182
G1 X110.746 Y110.801 E0.10643
G1 X110.673 Y111.107 E0.01863
G1 X110.119 Y112.810 E0.10626
G1 X109.999 Y113.100 E0.01862
G1 X109.185 Y114.698 E0.10640
G1 X109.021 Y114.966 E0.01864
G1 X107.966 Y116.417 E0.10641
G1 X107.763 Y116.656 E0.01862
G1 X106.495 Y117.924 E0.10634
G1 X106.256 Y118.127 E0.01862
G1 X104.807 Y119.181 E0.10632
G1 X104.539 Y119.345 E0.01862
G1 X102.942 Y120.159 E0.10635
G1 X102.651 Y120.279 E0.01866
G1 X100.947 Y120.833 E0.10628
G1 X100.642 Y120.906 E0.01862
G1 X98.868 Y121.187 E0.10652
G1 X97.660 Y121.247 E0.07177
G1 X82.340 Y121.247 E0.90881
G1 X81.132 Y121.187 E0.07177
G1 X79.358 Y120.906 E0.10652
G1 X79.053 Y120.833 E0.01862
G1 X77.349 Y120.279 E0.10629
G1 X77.059 Y120.159 E0.01862
G1 X75.461 Y119.345 E0.10639
G1 X75.193 Y119.181 E0.01862
G1 X73.744 Y118.128 E0.10628
G1 X73.505 Y117.924 E0.01866
G1 X72.237 Y116.656 E0.10634
G1 X72.033 Y116.417 E0.01863
G1 X70.979 Y114.966 E0.10641
G1 X70.815 Y114.698 E0.01862
G1 X70.001 Y113.100 E0.10641
G1 X69.880 Y112.809 E0.01868
G1 X69.327 Y111.106 E0.10623
G1 X69.254 Y110.801 E0.01865
G1 X68.973 Y109.029 E0.10639
G1 X68.913 Y107.820 E0.07182
G1 X68.913 Y72.180 E2.11423
G1 X68.948 Y71.284 E0.05321
G1 X68.973 Y70.970 E0.01866
G1 X69.254 Y69.199 E0.10638
G1 X69.327 Y68.894 E0.01863
G1 X69.881 Y67.190 E0.10627
G1 X70.001 Y66.900 E0.01862
G1 X70.815 Y65.302 E0.10640
G1 X70.979 Y65.034 E0.01862
G1 X72.034 Y63.582 E0.10644
G1 X72.198 Y63.389 E0.01506
G1 X72.599 Y63.653 F7800.000
G1 X73.814 Y62.438 E0.10190 F2160.000
G1 X74.052 Y62.234 E0.01862
G1 X75.442 Y61.225 E0.10189
G1 X75.710 Y61.061 E0.01862
G1 X77.241 Y60.281 E0.10194
G1 X77.531 Y60.160 E0.01865
G1 X79.164 Y59.630 E0.10187
G1 X79.469 Y59.556 E0.01862
G1 X81.169 Y59.287 E0.10207
G1 X82.340 Y59.229 E0.06956
G1 X97.660 Y59.229 E0.90881
G1 X98.518 Y59.262 E0.05096
G1 X98.831 Y59.287 E0.01862 F2160.000
G1 X100.530 Y59.556 E0.10204
G1 X100.836 Y59.630 E0.01865
G1 X102.468 Y60.160 E0.10184
G1 X102.759 Y60.280 E0.01864
G1 X104.290 Y61.061 E0.10197
G1 X104.558 Y61.225 E0.01863
G1 X105.948 Y62.234 E0.10188
G1 X106.186 Y62.438 E0.01862
G1 X107.401 Y63.653 E0.10190
G1 X107.605 Y63.891 E0.01862
G1 X108.616 Y65.283 E0.10201
G1 X108.780 Y65.551 E0.01864
G1 X109.560 Y67.082 E0.10194
G1 X109.680 Y67.372 E0.01865
G1 X110.211 Y69.005 E0.10183
G1 X110.284 Y69.310 E0.01861
G1 X110.553 Y71.008 E0.10200
G1 X110.611 Y72.180 E0.06961
G1 X110.611 Y107.820 E2.11423
G1 X110.553 Y108.992 E0.06961
G1 X110.284 Y110.690 E0.10200
G1 X110.211 Y110.996 E0.01863
G1 X109.680 Y112.628 E0.10184
G1 X109.560 Y112.918 E0.01862
G1 X108.780 Y114.450 E0.10198
G1 X108.615 Y114.718 E0.01864
G1 X107.605 Y116.109 E0.10198
G1 X107.401 Y116.347 E0.01862
G1 X106.186 Y117.562 E0.10191
G1 X105.948 Y117.766 E0.01862
G1 X104.558 Y118.775 E0.10189
G1 X104.290 Y118.939 E0.01862
G1 X102.760 Y119.719 E0.10193
G1 X102.469 Y119.840 E0.01866
G1 X100.836 Y120.370 E0.10186
G1 X100.531 Y120.444 E0.01862
G1 X98.831 Y120.713 E0.10208
G1 X97.660 Y120.771 E0.06956
G1 X82.340 Y120.771 E0.90881
G1 X81.169 Y120.713 E0.06956
G1 X79.469 Y120.444 E0.10208
G1 X79.164 Y120.370 E0.01862
G1 X77.531 Y119.840 E0.10186
G1 X77.241 Y119.720 E0.01862
G1 X75.710 Y118.939 E0.10196
G1 X75.442 Y118.775 E0.01862
G1 X74.053 Y117.766 E0.10185
G1 X73.814 Y117.562 E0.01866
G1 X72.599 Y116.347 E0.10191
G1 X72.395 Y116.108 E0.01863
G1 X71.384 Y114.718 E0.10199
G1 X71.221 Y114.450 E0.01862
G1 X70.440 Y112.918 E0.10198
G1 X70.320 Y112.627 E0.01867
G1 X69.789 Y110.995 E0.10181
G1 X69.716 Y110.690 E0.01865
G1 X69.447 Y108.992 E0.10196
G1 X69.389 Y107.820 E0.06961
G1 X69.389 Y72.180 E2.11423
G1 X69.422 Y71.321 E0.05100
G1 X69.447 Y71.007 E0.01866
G1 X69.716 Y69.310 E0.10195
G1 X69.789 Y69.005 E0.01863
G1 X70.320 Y67.372 E0.10185
G1 X70.440 Y67.082 E0.01862
G1 X71.220 Y65.550 E0.10197
G1 X71.384 Y65.283 E0.01862
G1 X72.395 Y63.891 E0.10201
G1 X72.560 Y63.698 E0.01506
G1 X72.961 Y63.962 F7800.000
G1 X74.123 Y62.800 E0.09748 F2160.000
G1 X74.361 Y62.596 E0.01862
G1 X75.690 Y61.630 E0.09746
G1 X75.958 Y61.466 E0.01862
G1 X77.423 Y60.720 E0.09751
G1 X77.713 Y60.600 E0.01865
G1 X79.275 Y60.092 E0.09745
G1 X79.581 Y60.019 E0.01862
G1 X81.206 Y59.761 E0.09763
G1 X82.340 Y59.704 E0.06735
G1 X97.660 Y59.704 E0.90881
G1 X98.481 Y59.737 E0.04874
G1 X98.794 Y59.761 E0.01862 F2160.000
G1 X100.419 Y60.019 E0.09761
G1 X100.725 Y60.092 E0.01865
G1 X102.286 Y60.600 E0.09741
G1 X102.577 Y60.720 E0.01864
G1 X104.042 Y61.466 E0.09754
G1 X104.310 Y61.630 E0.01863
G1 X105.639 Y62.596 E0.09746
G1 X105.877 Y62.800 E0.01862
G1 X107.039 Y63.962 E0.09748
G1 X107.243 Y64.200 E0.01862
G1 X108.210 Y65.531 E0.09758
G1 X108.374 Y65.799 E0.01864
G1 X109.120 Y67.264 E0.09752
G1 X109.241 Y67.554 E0.01865
G1 X109.748 Y69.116 E0.09741
G1 X109.821 Y69.421 E0.01861
G1 X110.079 Y71.045 E0.09757
G1 X110.136 Y72.180 E0.06739
G1 X110.136 Y107.820 E2.11423
G1 X110.079 Y108.955 E0.06739
G1 X109.821 Y110.579 E0.09757
G1 X109.748 Y110.884 E0.01863
G1 X109.241 Y112.446 E0.09742
G1 X109.120 Y112.736 E0.01862
G1 X108.374 Y114.201 E0.09755
G1 X108.210 Y114.469 E0.01864
G1 X107.243 Y115.800 E0.09755
G1 X107.039 Y116.038 E0.01862
G1 X105.877 Y117.200 E0.09748
G1 X105.639 Y117.404 E0.01862
G1 X104.309 Y118.370 E0.09746
G1 X104.042 Y118.534 E0.01862
G1 X102.577 Y119.280 E0.09750
G1 X102.287 Y119.400 E0.01866
G1 X100.725 Y119.908 E0.09743
G1 X100.420 Y119.981 E0.01862
G1 X98.794 Y120.239 E0.09765
G1 X97.660 Y120.296 E0.06735
G1 X82.340 Y120.296 E0.90881
G1 X81.206 Y120.239 E0.06735
G1 X79.580 Y119.981 E0.09765
G1 X79.275 Y119.908 E0.01862
G1 X77.713 Y119.400 E0.09744
G1 X77.423 Y119.280 E0.01862
G1 X75.958 Y118.534 E0.09754
G1 X75.691 Y118.370 E0.01862
G1 X74.362 Y117.404 E0.09743
G1 X74.123 Y117.200 E0.01865
G1 X72.961 Y116.038 E0.09748
G1 X72.771 Y115.817 E0.01729
G1 X71.790 Y114.469 E0.09889
G1 X71.626 Y114.201 E0.01862
G1 X70.880 Y112.736 E0.09755
G1 X70.759 Y112.445 E0.01867
G1 X70.252 Y110.884 E0.09739
G1 X70.178 Y110.578 E0.01865
G1 X69.921 Y108.955 E0.09753
G1 X69.864 Y107.820 E0.06739
G1 X69.864 Y72.180 E2.11423
G1 X69.897 Y71.358 E0.04878
G1 X69.921 Y71.045 E0.01866
G1 X70.179 Y69.421 E0.09752
G1 X70.252 Y69.116 E0.01863
G1 X70.759 Y67.554 E0.09742
G1 X70.880 Y67.264 E0.01862
G1 X71.626 Y65.799 E0.09754
G1 X71.790 Y65.531 E0.01862
G1 X72.757 Y64.200 E0.09758
G1 X72.922 Y64.007 E0.01506
G1 F6240
G1 X74.123 Y62.800 E-0.93337
G1 F6240
G1 X74.361 Y62.596 E-0.17200
G1 F6240
G1 X74.553 Y62.457 E-0.12963
G1 E-0.06500 F3600.00000
G1 X87.190 Y106.397 F7800.000
G1 E1.30000 F3600.00000
G1 X86.981 Y106.738 E0.02372 F1080.000
G1 X86.722 Y107.042 E0.02372
G1 X86.418 Y107.301 E0.02372
G1 X86.077 Y107.510 E0.02372
G1 X85.730 Y107.654 E0.02229
G1 X85.322 Y107.756 E0.02490
G1 X84.920 Y107.788 E0.02395
G1 X84.521 Y107.757 E0.02372
G1 X84.133 Y107.663 E0.02372
G1 X83.763 Y107.510 E0.02372
G1 X83.422 Y107.301 E0.02372
G1 X83.118 Y107.042 E0.02372
G1 X82.859 Y106.738 E0.02372
G1 X82.650 Y106.397 E0.02372
G1 X82.497 Y106.027 E0.02372
G1 X82.403 Y105.639 E0.02371
G1 X82.372 Y105.236 E0.02395
G1 X82.409 Y104.818 E0.02490
G1 X82.497 Y104.453 E0.02228
G1 X82.650 Y104.083 E0.02372
G1 X82.859 Y103.742 E0.02372
G1 X83.118 Y103.438 E0.02372
G1 X83.422 Y103.179 E0.02372
G1 X83.763 Y102.970 E0.02371
G1 X84.133 Y102.817 E0.02372
G1 X84.521 Y102.723 E0.02371
G1 X84.896 Y102.694 E0.02229 F1080.000
G1 X85.315 Y102.723 E0.02490
G1 X85.707 Y102.817 E0.02395
G1 X86.077 Y102.970 E0.02372
G1 X86.418 Y103.179 E0.02372
G1 X86.722 Y103.438 E0.02372
G1 X86.981 Y103.742 E0.02372
G1 X87.190 Y104.083 E0.02372
G1 X87.343 Y104.453 E0.02372
G1 X87.437 Y104.841 E0.02371
G1 X87.468 Y105.244 E0.02395
G1 X87.431 Y105.662 E0.02490
G1 X87.343 Y106.027 E0.02228
G1 X87.213 Y106.341 E0.02016
G1 X86.765 Y106.180 F7800.000
G1 X86.595 Y106.457 E0.01928 F1080.000
G1 X86.384 Y106.704 E0.01928
G1 X86.137 Y106.915 E0.01927
G1 X85.860 Y107.085 E0.01928
G1 X85.580 Y107.201 E0.01800
G1 X85.245 Y107.285 E0.02046
G1 X84.920 Y107.311 E0.01936
G1 X84.596 Y107.285 E0.01928
G1 X84.280 Y107.209 E0.01928
G1 X83.980 Y107.085 E0.01928
G1 X83.703 Y106.915 E0.01928
G1 X83.456 Y106.704 E0.01927
G1 X83.245 Y106.457 E0.01928
G1 X83.075 Y106.180 E0.01928
G1 X82.951 Y105.880 E0.01928
G1 X82.875 Y105.564 E0.01927
G1 X82.849 Y105.239 E0.01936
G1 X82.880 Y104.895 E0.02046
G1 X82.951 Y104.600 E0.01799
G1 X83.075 Y104.300 E0.01928
G1 X83.245 Y104.023 E0.01928
G1 X83.456 Y103.776 E0.01928
G1 X83.703 Y103.565 E0.01928
G1 X83.980 Y103.395 E0.01928
G1 X84.280 Y103.271 E0.01928
G1 X84.596 Y103.195 E0.01928
G1 X84.898 Y103.171 E0.01800 F1080.000
G1 X85.243 Y103.194 E0.02046
G1 X85.560 Y103.271 E0.01936
G1 X85.860 Y103.395 E0.01928
G1 X86.137 Y103.565 E0.01928
G1 X86.384 Y103.776 E0.01928
G1 X86.595 Y104.023 E0.01928
G1 X86.765 Y104.300 E0.01928
G1 X86.889 Y104.600 E0.01928
G1 X86.965 Y104.916 E0.01927
G1 X86.991 Y105.241 E0.01936
G1 X86.960 Y105.585 E0.02046
G1 X86.889 Y105.880 E0.01799
G1 X86.788 Y106.125 E0.01572
G1 X86.935 Y106.457 F7800.000
G1 X92.563 Y105.639 F7800.000
G1 X92.532 Y105.236 E0.02395 F1080.000
G1 X92.569 Y104.818 E0.02490
G1 X92.657 Y104.453 E0.02228
G1 X92.810 Y104.083 E0.02372
G1 X93.019 Y103.742 E0.02372
G1 X93.278 Y103.438 E0.02372
G1 X93.582 Y103.179 E0.02372
G1 X93.923 Y102.970 E0.02372
G1 X94.293 Y102.817 E0.02372
G1 X94.681 Y102.723 E0.02371
G1 X95.056 Y102.694 E0.02229 F1080.000
G1 X95.475 Y102.723 E0.02490
G1 X95.867 Y102.817 E0.02395
G1 X96.237 Y102.970 E0.02372
G1 X96.578 Y103.179 E0.02371
G1 X96.882 Y103.438 E0.02372
G1 X97.141 Y103.742 E0.02372
G1 X97.350 Y104.083 E0.02372
G1 X97.503 Y104.453 E0.02372
G1 X97.597 Y104.841 E0.02371
G1 X97.628 Y105.240 E0.02372
G1 X97.597 Y105.639 E0.02372
G1 X97.503 Y106.027 E0.02371
G1 X97.350 Y106.397 E0.02372
G1 X97.141 Y106.738 E0.02372
G1 X96.882 Y107.042 E0.02372
G1 X96.578 Y107.301 E0.02372
G1 X96.237 Y107.510 E0.02372
G1 X95.890 Y107.654 E0.02229
G1 X95.482 Y107.756 E0.02490
G1 X95.080 Y107.788 E0.02395
G1 X94.681 Y107.757 E0.02372
G1 X94.293 Y107.663 E0.02372
G1 X93.923 Y107.510 E0.02372
G1 X93.582 Y107.301 E0.02372
G1 X93.278 Y107.042 E0.02372
G1 X93.019 Y106.738 E0.02372
G1 X92.810 Y106.397 E0.02372
G1 X92.657 Y106.027 E0.02372
G1 X92.577 Y105.697 E0.02015
G1 X93.035 Y105.564 F7800.000
G1 X93.009 Y105.239 E0.01936 F1080.000
G1 X93.040 Y104.895 E0.02046
G1 X93.111 Y104.600 E0.01799
G1 X93.235 Y104.300 E0.01928
G1 X93.405 Y104.023 E0.01928
G1 X93.616 Y103.776 E0.01928
G1 X93.863 Y103.565 E0.01928
G1 X94.140 Y103.395 E0.01928
G1 X94.440 Y103.271 E0.01928
G1 X94.756 Y103.195 E0.01928
G1 X95.058 Y103.171 E0.01800 F1080.000
G1 X95.403 Y103.194 E0.02046
G1 X95.720 Y103.271 E0.01936
G1 X96.020 Y103.395 E0.01928
G1 X96.297 Y103.565 E0.01928
G1 X96.544 Y103.776 E0.01928
G1 X96.755 Y104.023 E0.01928
G1 X96.925 Y104.300 E0.01928
G1 X97.049 Y104.600 E0.01928
G1 X97.125 Y104.916 E0.01927
G1 X97.151 Y105.240 E0.01928
G1 X97.125 Y105.564 E0.01928
G1 X97.049 Y105.880 E0.01927
G1 X96.925 Y106.180 E0.01928
G1 X96.755 Y106.457 E0.01928
G1 X96.544 Y106.704 E0.01928
G1 X96.297 Y106.915 E0.01928
G1 X96.020 Y107.085 E0.01928
G1 X95.740 Y107.201 E0.01800
G1 X95.405 Y107.285 E0.02046
G1 X95.080 Y107.311 E0.01936
G1 X94.756 Y107.285 E0.01928
G1 X94.440 Y107.209 E0.01928
G1 X94.140 Y107.085 E0.01928
G1 X93.863 Y106.915 E0.01928
G1 X93.616 Y106.704 E0.01927
G1 X93.405 Y106.457 E0.01928
G1 X93.235 Y106.180 E0.01928
G1 X93.111 Y105.880 E0.01928
G1 X93.049 Y105.622 E0.01571
G1 X92.733 Y105.439 F7800.000
G1 X94.646 Y94.646 F7800.000
G1 X85.354 Y94.646 E0.55117 F1080.000
G1 X85.354 Y85.354 E0.55117
G1 X94.646 Y85.354 E0.55117
G1 X94.646 Y94.586 E0.54761
G1 X94.170 Y94.170 F7800.000
G1 X85.830 Y94.170 E0.49474 F1080.000
G1 X85.830 Y85.830 E0.49474
G1 X94.170 Y85.830 E0.49474
G1 X94.170 Y94.110 E0.49119
G1 X94.170 Y94.570 F7800.000
G1 F6240
G1 X91.917 Y94.126 E-1.23500
G1 E-0.06500 F3600.00000
G1 X86.077 Y77.030 F7800.000
G1 E1.30000 F3600.00000
G1 X85.707 Y77.183 E0.02372 F1080.000
G1 X85.319 Y77.277 E0.02371
G1 X84.920 Y77.308 E0.02372
G1 X84.521 Y77.277 E0.02372
G1 X84.133 Y77.183 E0.02371
G1 X83.763 Y77.030 E0.02372
G1 X83.422 Y76.821 E0.02372
G1 X83.118 Y76.562 E0.02372
G1 X82.856 Y76.255 E0.02395
G1 X82.641 Y75.894 E0.02490
G1 X82.497 Y75.547 E0.02229
G1 X82.403 Y75.159 E0.02371
G1 X82.372 Y74.756 E0.02395
G1 X82.409 Y74.338 E0.02490
G1 X82.497 Y73.973 E0.02229
G1 X82.650 Y73.603 E0.02372
G1 X82.859 Y73.262 E0.02372
G1 X83.118 Y72.958 E0.02372
G1 X83.422 Y72.699 E0.02372
G1 X83.763 Y72.490 E0.02372
G1 X84.133 Y72.337 E0.02372
G1 X84.521 Y72.243 E0.02372
G1 X84.896 Y72.214 E0.02229 F1080.000
G1 X85.315 Y72.243 E0.02490
G1 X85.707 Y72.337 E0.02395
G1 X86.077 Y72.490 E0.02372
G1 X86.418 Y72.699 E0.02372
G1 X86.722 Y72.958 E0.02372
G1 X86.981 Y73.262 E0.02372
G1 X87.188 Y73.600 E0.02346
G1 X87.338 Y73.950 E0.02260
G1 X87.437 Y74.361 E0.02510
G1 X87.468 Y74.760 E0.02372
G1 X87.437 Y75.159 E0.02372
G1 X87.343 Y75.547 E0.02371
G1 X87.190 Y75.917 E0.02372
G1 X86.981 Y76.258 E0.02372
G1 X86.722 Y76.562 E0.02372
G1 X86.418 Y76.821 E0.02372
G1 X86.128 Y76.999 E0.02016
G1 X85.860 Y76.605 F7800.000
G1 X85.560 Y76.729 E0.01928 F1080.000
G1 X85.244 Y76.805 E0.01928
G1 X84.920 Y76.831 E0.01928
G1 X84.596 Y76.805 E0.01928
G1 X84.280 Y76.729 E0.01928
G1 X83.980 Y76.605 E0.01928
G1 X83.703 Y76.435 E0.01928
G1 X83.456 Y76.224 E0.01928
G1 X83.244 Y75.976 E0.01936
G1 X83.067 Y75.680 E0.02046
G1 X82.951 Y75.400 E0.01800
G1 X82.875 Y75.084 E0.01927
G1 X82.849 Y74.759 E0.01936
G1 X82.880 Y74.415 E0.02046
G1 X82.951 Y74.120 E0.01799
G1 X83.075 Y73.820 E0.01928
G1 X83.245 Y73.543 E0.01928
G1 X83.456 Y73.296 E0.01928
G1 X83.703 Y73.085 E0.01927
G1 X83.980 Y72.915 E0.01928
G1 X84.280 Y72.791 E0.01928
G1 X84.596 Y72.715 E0.01928
G1 X84.898 Y72.691 E0.01800 F1080.000
G1 X85.243 Y72.714 E0.02046
G1 X85.560 Y72.791 E0.01936
G1 X85.860 Y72.915 E0.01928
G1 X86.137 Y73.085 E0.01928
G1 X86.384 Y73.296 E0.01928
G1 X86.595 Y73.543 E0.01928
G1 X86.764 Y73.819 E0.01918
G1 X86.885 Y74.100 E0.01816
G1 X86.965 Y74.436 E0.02050
G1 X86.991 Y74.760 E0.01928
G1 X86.965 Y75.084 E0.01928
G1 X86.889 Y75.400 E0.01927
G1 X86.765 Y75.700 E0.01928
G1 X86.595 Y75.977 E0.01928
G1 X86.384 Y76.224 E0.01928
G1 X86.137 Y76.435 E0.01928
G1 X85.911 Y76.574 E0.01572
G1 X85.835 Y76.929 F7800.000
G1 X91.949 Y74.515 F7800.000
G1 X93.278 Y72.958 E0.12141 F1080.000
G1 X93.582 Y72.699 E0.02372
G1 X93.923 Y72.490 E0.02372
G1 X94.293 Y72.337 E0.02372
G1 X94.681 Y72.243 E0.02372
G1 X95.056 Y72.214 E0.02231
G1 X95.507 Y72.245 E0.02679
G1 X95.873 Y72.339 E0.02241
G1 X96.237 Y72.490 E0.02337
